kodachrome/data/kodachrome.cube
TITLE "kodachrome"
LUT_3D_SIZE 9
DOMAIN_MIN 0.0 0.0 0.0
DOMAIN_MAX 1.0 1.0 1.0
0.000000 0.000000 0.000000
0.106478 0.000000 0.016382
0.253475 0.000000 0.002216
0.376660 0.003233 0.001180
0.500012 0.012771 0.005046
0.629230 0.031678 0.000000
0.744480 0.060314 0.001770
0.847315 0.103505 0.021970
0.999412 0.002597 0.000000
0.000000 0.138744 0.000000
0.115474 0.136191 0.014348
0.293766 0.127427 0.000000
0.375313 0.125036 0.000000
0.500918 0.132746 0.006691
0.626304 0.134406 0.003760
0.746776 0.135944 0.010603
0.869074 0.137768 0.006569
0.975480 0.187142 0.017661
0.006840 0.251023 0.000000
0.096969 0.258817 0.000233
0.275144 0.270434 0.000000
0.402138 0.282805 0.000000
0.509015 0.255441 0.000000
0.625051 0.251502 0.002336
0.749517 0.251706 0.002239
0.875000 0.249999 0.000000
0.960024 0.321801 0.045457
0.000000 0.374998 0.000000
0.130753 0.375989 0.016343
0.328710 0.378919 0.017941
0.402932 0.390676 0.000000
0.524296 0.396722 0.040810
0.628907 0.377184 0.000000
0.751292 0.375686 0.001180
0.874996 0.375039 0.000066
0.995185 0.382882 0.010780
0.031857 0.498119 0.041169
0.125008 0.499999 0.000022
0.306766 0.490728 0.075640
0.429073 0.491688 0.094358
0.515867 0.503071 0.060016
0.640827 0.505757 0.076138
0.779066 0.501772 0.013395
0.874954 0.500006 0.000001
1.000000 0.500924 0.006477
0.000000 0.625001 0.000000
0.125000 0.625000 0.000000
0.262007 0.623327 0.037687
0.429047 0.615989 0.104118
0.552595 0.616663 0.098036
0.646422 0.623468 0.105516
0.788013 0.622205 0.119251
0.906523 0.619332 0.010894
0.999994 0.624994 0.000000
0.000000 0.750000 0.000000
0.125000 0.750000 0.000000
0.250000 0.750000 0.000001
0.375719 0.749925 0.002404
0.583813 0.731879 0.164085
0.633426 0.748116 0.047383
0.775725 0.754089 0.098828
0.953413 0.734287 0.077785
1.000000 0.750073 0.036281
0.000000 0.875000 0.000000
0.125000 0.875000 0.000000
0.250000 0.875000 0.000000
0.375000 0.875000 0.000000
0.499955 0.875006 0.000000
0.665609 0.854850 0.128850
0.770548 0.868303 0.060344
0.882270 0.870508 0.050694
0.999886 0.860080 0.090854
0.000002 1.000000 0.000002
0.125000 1.000000 0.000000
0.250000 1.000000 0.000000
0.375000 1.000000 0.000000
0.500000 1.000000 0.000000
0.625001 1.000000 0.000003
0.749861 1.000000 0.000000
0.910767 0.997889 0.067806
0.999677 0.987393 0.165456
0.000030 0.000000 0.118625
0.125000 0.000000 0.125254
0.249959 0.000041 0.125056
0.375417 0.000961 0.127662
0.497757 0.037515 0.137195
0.629117 0.008278 0.115140
0.741335 0.052760 0.135449
0.859814 0.036420 0.137584
0.967189 0.105733 0.117322
0.000000 0.129422 0.119709
0.139073 0.135602 0.114288
0.307902 0.100984 0.077395
0.398166 0.130686 0.106430
0.501669 0.143490 0.131481
0.623578 0.142171 0.133210
0.746274 0.137742 0.132724
0.872788 0.129057 0.127178
0.996741 0.138008 0.126686
0.000000 0.255116 0.103136
0.138288 0.253986 0.087985
0.297407 0.278212 0.044341
0.419593 0.283760 0.078911
0.513990 0.257049 0.123353
0.624913 0.252817 0.127935
0.745511 0.262995 0.139447
0.866344 0.264403 0.136660
0.999985 0.250023 0.125006
0.010941 0.376350 0.131753
0.130430 0.375965 0.128763
0.276550 0.378621 0.129731
0.406368 0.394593 0.145751
0.525098 0.397763 0.144857
0.629045 0.377038 0.123537
0.754101 0.380422 0.124693
0.875003 0.375015 0.125003
0.994779 0.383341 0.131529
0.000030 0.500000 0.125026
0.125255 0.499977 0.125430
0.250029 0.499994 0.125055
0.406830 0.496844 0.155210
0.502406 0.501024 0.128814
0.627188 0.502417 0.139349
0.757511 0.500504 0.125276
0.875110 0.499995 0.124949
0.999989 0.500145 0.125140
0.000000 0.625001 0.124991
0.124999 0.625000 0.124999
0.249987 0.625003 0.124974
0.377479 0.624598 0.132753
0.506939 0.624102 0.143836
0.627514 0.624809 0.137610
0.751775 0.625087 0.130559
0.899400 0.620161 0.131797
0.999999 0.625000 0.125008
0.002897 0.749683 0.127114
0.124999 0.750000 0.124999
0.250000 0.750000 0.125000
0.384610 0.748888 0.147723
0.504333 0.748969 0.164085
0.629412 0.749358 0.146728
0.750689 0.750128 0.129180
0.887838 0.750624 0.163240
0.999996 0.750017 0.127354
0.000000 0.875000 0.124999
0.125000 0.875000 0.125000
0.250000 0.875000 0.125000
0.375000 0.875000 0.125000
0.500000 0.875000 0.124998
0.633453 0.870878 0.179110
0.753971 0.872681 0.147512
0.875024 0.874959 0.125244
1.000000 0.866331 0.227515
0.051992 0.993083 0.159052
0.125000 1.000000 0.125000
0.250000 1.000000 0.125000
0.375000 1.000000 0.125000
0.500000 1.000000 0.125000
0.625000 1.000000 0.125001
0.750044 0.999985 0.125176
0.874977 1.000000 0.124850
1.000000 0.987383 0.213601
0.000000 0.000000 0.250080
0.124989 0.000012 0.249993
0.250000 0.000000 0.249999
0.375173 0.000000 0.253304
0.500006 0.000023 0.250202
0.624995 0.000000 0.250006
0.749102 0.004700 0.252245
0.873061 0.004589 0.251192
0.968498 0.099679 0.235909
0.005163 0.137689 0.246787
0.144470 0.126590 0.262293
0.250399 0.124989 0.250048
0.379403 0.127910 0.248676
0.499999 0.125100 0.250001
0.624900 0.127261 0.251382
0.736204 0.170072 0.282065
0.865265 0.143191 0.256713
0.938483 0.251281 0.311833
0.000000 0.252493 0.248898
0.166488 0.277903 0.255842
0.306091 0.289357 0.270062
0.396850 0.287378 0.284519
0.515706 0.259294 0.247774
0.625613 0.253574 0.249860
0.749971 0.250050 0.250024
0.875015 0.249975 0.250006
0.997993 0.252919 0.251146
0.055511 0.391837 0.286273
0.134058 0.377492 0.252929
0.265638 0.379361 0.253135
0.413161 0.411380 0.279647
0.528299 0.409119 0.277539
0.645732 0.387308 0.257222
0.750033 0.380729 0.252647
0.873937 0.377251 0.252083
1.000000 0.374981 0.249994
0.000124 0.499999 0.250089
0.125954 0.500030 0.250557
0.254004 0.500080 0.253761
0.412815 0.501969 0.281443
0.530155 0.513709 0.276778
0.635788 0.513145 0.277961
0.767914 0.504605 0.260531
0.879448 0.500696 0.246705
1.000000 0.499995 0.249994
0.002818 0.624771 0.251582
0.124998 0.625000 0.249997
0.250818 0.624881 0.251227
0.383386 0.624343 0.267277
0.508384 0.624742 0.270861
0.635393 0.627558 0.299608
0.751742 0.625677 0.256490
0.890040 0.624652 0.259654
0.999967 0.625024 0.250072
0.040470 0.746558 0.276308
0.124990 0.750001 0.249992
0.249991 0.750001 0.249993
0.374999 0.750000 0.249996
0.501213 0.749753 0.253986
0.627730 0.749957 0.264648
0.753013 0.750989 0.268804
0.874976 0.749990 0.249893
1.000000 0.753429 0.286068
0.000000 0.875000 0.249998
0.125000 0.875000 0.250000
0.250000 0.875000 0.250000
0.375000 0.875000 0.250000
0.499997 0.875001 0.249990
0.627231 0.874108 0.262282
0.751411 0.874438 0.275454
0.875627 0.874844 0.254185
1.000000 0.871644 0.310063
0.073716 0.987891 0.297679
0.124769 1.000000 0.249829
0.250000 1.000000 0.250000
0.375000 1.000000 0.250000
0.500000 1.000000 0.250000
0.624975 1.000000 0.249885
0.750053 0.999983 0.250242
0.876038 0.998871 0.255739
0.998510 0.988780 0.340147
0.000000 0.000000 0.375032
0.124999 0.000000 0.375000
0.250000 0.000000 0.375000
0.375000 0.000000 0.375000
0.499996 0.000001 0.374989
0.625000 0.000000 0.375000
0.750000 0.000000 0.375000
0.875000 0.000000 0.375000
0.992987 0.029924 0.357065
0.066219 0.159873 0.347447
0.131424 0.126011 0.376877
0.250383 0.124689 0.375235
0.375030 0.124950 0.375110
0.501006 0.124617 0.377006
0.625011 0.125041 0.375099
0.749998 0.124992 0.374985
0.873691 0.127601 0.376200
0.981158 0.165661 0.393839
0.022991 0.265970 0.380182
0.154357 0.276004 0.390799
0.296368 0.285627 0.390173
0.380619 0.255261 0.377045
0.501750 0.259597 0.378749
0.625513 0.253672 0.375555
0.749138 0.260713 0.385685
0.875011 0.250011 0.375010
0.914920 0.363608 0.419994
0.000000 0.374935 0.374966
0.124981 0.374998 0.374997
0.293080 0.408750 0.404822
0.434128 0.411411 0.410041
0.517230 0.418399 0.422435
0.634512 0.394354 0.386752
0.749666 0.378153 0.375417
0.872662 0.380006 0.377872
0.999985 0.375019 0.375005
0.059392 0.506352 0.407912
0.125068 0.500004 0.375034
0.266427 0.501268 0.380152
0.409313 0.512400 0.408162
0.524786 0.518795 0.414040
0.637927 0.520621 0.412200
0.770097 0.512899 0.392282
0.877833 0.503882 0.377527
1.000000 0.500001 0.375001
0.010553 0.624587 0.380477
0.125113 0.624993 0.375092
0.252533 0.624807 0.377704
0.374945 0.624995 0.374903
0.533891 0.632320 0.461373
0.634608 0.637598 0.454079
0.766823 0.637756 0.445822
0.911503 0.629831 0.404711
1.000000 0.626785 0.380311
0.002677 0.749868 0.376447
0.125019 0.749999 0.375016
0.249977 0.750002 0.374977
0.375006 0.749999 0.375011
0.505795 0.749213 0.387361
0.631018 0.751462 0.413729
0.782708 0.770117 0.543315
0.881828 0.760666 0.434756
1.000000 0.751845 0.383326
0.041363 0.870785 0.400736
0.124999 0.875000 0.374999
0.250000 0.875000 0.375000
0.374998 0.875000 0.374996
0.499996 0.875001 0.374988
0.640146 0.870298 0.438652
0.750373 0.875072 0.382390
0.877364 0.874834 0.406962
0.999994 0.874667 0.448775
0.068472 0.985422 0.411175
0.125015 0.999997 0.375009
0.284077 0.990500 0.402626
0.374999 1.000000 0.374999
0.500000 1.000000 0.375000
0.625000 1.000000 0.374999
0.750055 0.999929 0.375315
0.878233 0.995712 0.400450
0.984948 0.957440 0.594375
0.000000 0.000000 0.500005
0.125000 0.000000 0.500000
0.250000 0.000000 0.500000
0.375000 0.000000 0.500000
0.500000 0.000000 0.500000
0.625000 0.000000 0.500000
0.750000 0.000000 0.500000
0.875000 0.000000 0.500000
1.000000 0.000000 0.500000
0.090336 0.189357 0.451192
0.126771 0.125595 0.499729
0.250131 0.124972 0.500017
0.375000 0.125000 0.500000
0.500000 0.125000 0.500000
0.625000 0.125000 0.500000
0.750004 0.124992 0.499992
0.875000 0.125000 0.500000
1.000000 0.124998 0.499999
0.064568 0.288600 0.502788
0.168652 0.278558 0.505776
0.260249 0.258205 0.504559
0.376518 0.250264 0.503041
0.500001 0.250001 0.500000
0.625024 0.250021 0.500090
0.750007 0.249988 0.499990
0.874974 0.250052 0.500023
0.997292 0.254205 0.503456
0.006853 0.376783 0.502846
0.146023 0.383060 0.507968
0.290666 0.415689 0.544776
0.400528 0.409102 0.533785
0.501808 0.377420 0.502080
0.624284 0.378933 0.504694
0.745950 0.393799 0.509059
0.875010 0.374990 0.499990
0.995897 0.393078 0.500310
0.000000 0.500000 0.500000
0.124970 0.499993 0.499987
0.265799 0.504387 0.511010
0.396879 0.523219 0.546908
0.518815 0.524708 0.551282
0.637216 0.531016 0.528174
0.757177 0.522878 0.526424
0.875559 0.501432 0.500398
0.999688 0.500646 0.500425
0.000000 0.625000 0.499999
0.128789 0.624834 0.501644
0.255809 0.625147 0.504570
0.380463 0.625540 0.506489
0.513395 0.634963 0.541057
0.637706 0.649320 0.571653
0.760010 0.647269 0.553600
0.909962 0.636273 0.530778
0.999994 0.624989 0.499976
0.028486 0.749188 0.516010
0.125004 0.750000 0.500002
0.250144 0.749987 0.500133
0.376489 0.749893 0.501809
0.510742 0.749722 0.517187
0.641237 0.756590 0.563777
0.762464 0.773843 0.622669
0.879113 0.758981 0.534121
1.000000 0.756030 0.515472
0.000920 0.874949 0.500421
0.125776 0.874918 0.500548
0.256715 0.874529 0.506509
0.374988 0.875001 0.499988
0.500225 0.874970 0.500437
0.632456 0.873266 0.522858
0.750898 0.875478 0.509660
0.875933 0.876404 0.521604
1.000000 0.888223 0.606222
0.000000 1.000000 0.499997
0.124653 1.000000 0.499752
0.269546 0.999933 0.500193
0.375000 1.000000 0.500000
0.499999 1.000000 0.499997
0.625877 0.999297 0.502671
0.749988 1.000000 0.499826
0.874986 0.999945 0.500447
0.999757 0.963769 0.703687
0.000000 0.000000 0.625000
0.125000 0.000000 0.625000
0.250000 0.000000 0.625000
0.375000 0.000000 0.625000
0.500000 0.000000 0.625000
0.625000 0.000000 0.625000
0.750000 0.000000 0.625000
0.875000 0.000000 0.625000
1.000000 0.000000 0.625000
0.026764 0.140453 0.609890
0.124994 0.124998 0.625002
0.250000 0.125000 0.625000
0.375000 0.125000 0.625000
0.500000 0.125000 0.625000
0.625000 0.125000 0.625000
0.750000 0.125000 0.625000
0.875000 0.125000 0.625000
1.000000 0.125000 0.625000
0.035359 0.268767 0.613065
0.129683 0.253174 0.624121
0.249927 0.249936 0.624980
0.375000 0.250000 0.625000
0.499996 0.249999 0.624983
0.625000 0.250000 0.625000
0.750000 0.250000 0.625000
0.875000 0.250000 0.625000
1.000000 0.250000 0.625000
0.000000 0.374950 0.625012
0.125386 0.375179 0.625000
0.280934 0.392763 0.642557
0.380384 0.381384 0.632385
0.501247 0.380776 0.632022
0.625000 0.375005 0.625006
0.750001 0.374997 0.624997
0.875000 0.374997 0.624997
0.997807 0.379905 0.627239
0.024952 0.504147 0.632736
0.194763 0.520841 0.661894
0.348392 0.528438 0.640579
0.410791 0.527919 0.663708
0.512352 0.519918 0.659658
0.627815 0.503718 0.634773
0.749942 0.501944 0.628362
0.876072 0.505015 0.628779
0.996395 0.505847 0.625501
0.000001 0.625000 0.625000
0.125000 0.625000 0.625000
0.249996 0.624996 0.625005
0.380891 0.627200 0.631647
0.510015 0.652363 0.679538
0.638108 0.659092 0.680950
0.772359 0.648811 0.662914
0.880597 0.633168 0.638811
1.000000 0.624996 0.625146
0.000000 0.750006 0.624981
0.124999 0.750000 0.624999
0.254614 0.749981 0.628730
0.379870 0.750262 0.630862
0.514452 0.750183 0.627516
0.641776 0.761094 0.673231
0.768256 0.793260 0.724444
0.878670 0.775784 0.685310
0.996492 0.768031 0.674225
0.053759 0.870990 0.655554
0.125015 0.875000 0.625009
0.249998 0.875000 0.624998
0.375001 0.875000 0.625001
0.500000 0.875003 0.624993
0.626049 0.874924 0.627576
0.752419 0.876785 0.640551
0.878917 0.897353 0.764420
0.998865 0.899643 0.711856
0.000000 1.000000 0.624997
0.125000 1.000000 0.625000
0.250180 0.999970 0.625306
0.374987 1.000000 0.624989
0.500000 1.000000 0.625000
0.624988 1.000000 0.624967
0.752616 0.996431 0.638797
0.876557 0.992584 0.660419
0.982415 0.994356 0.751788
0.000000 0.000000 0.750000
0.125000 0.000000 0.750000
0.250000 0.000000 0.750000
0.375000 0.000000 0.750000
0.500000 0.000000 0.750000
0.625000 0.000000 0.750000
0.750000 0.000000 0.750000
0.875000 0.000000 0.750000
1.000000 0.000000 0.750000
0.000000 0.124985 0.750008
0.125000 0.125000 0.750000
0.250000 0.125000 0.750000
0.375000 0.125000 0.750000
0.500000 0.125000 0.750000
0.625000 0.125000 0.750000
0.750000 0.125000 0.750000
0.875000 0.125000 0.750000
1.000000 0.125000 0.750000
0.132707 0.332428 0.675874
0.132707 0.249999 0.750003
0.250009 0.250005 0.750001
0.375000 0.250000 0.750000
0.500000 0.250000 0.750000
0.625000 0.250000 0.750000
0.750000 0.250000 0.750000
0.875000 0.250000 0.750000
1.000000 0.250000 0.750000
0.020044 0.380416 0.746018
0.128378 0.376174 0.749432
0.254209 0.377066 0.749668
0.377449 0.376656 0.751720
0.500000 0.375000 0.749999
0.625000 0.375000 0.750000
0.750000 0.375000 0.750000
0.875000 0.375000 0.750000
1.000000 0.375000 0.750000
0.035818 0.505228 0.755389
0.125505 0.500122 0.750098
0.261549 0.504359 0.756551
0.394042 0.508866 0.773195
0.501955 0.503155 0.757343
0.625000 0.500000 0.749996
0.750000 0.499998 0.749997
0.875000 0.499999 0.749998
0.998338 0.501593 0.750684
0.005434 0.625580 0.751679
0.136384 0.626752 0.754725
0.265942 0.629821 0.763642
0.413989 0.645994 0.782568
0.515712 0.651245 0.808328
0.633672 0.640150 0.797951
0.755648 0.628993 0.759921
0.874715 0.626186 0.751568
0.999178 0.626628 0.751881
0.000000 0.750000 0.750000
0.125000 0.750000 0.750000
0.250004 0.750001 0.750004
0.375039 0.749998 0.750022
0.518625 0.758998 0.786655
0.623340 0.777307 0.804355
0.790977 0.784663 0.791735
0.883057 0.768621 0.779278
0.995617 0.774312 0.787800
0.000000 0.875001 0.749997
0.125000 0.875000 0.750000
0.250000 0.875000 0.750000
0.375074 0.875004 0.750065
0.508668 0.875278 0.762739
0.625802 0.875212 0.751500
0.754465 0.878247 0.760323
0.892930 0.896187 0.809769
1.000000 0.908678 0.834627
0.060484 0.985650 0.785104
0.125001 1.000000 0.750000
0.250000 1.000000 0.750000
0.374934 1.000000 0.749980
0.500101 0.999961 0.750079
0.624975 1.000000 0.749965
0.755111 0.996281 0.761669
0.885775 0.976572 0.836604
0.994812 0.999329 0.773585
0.000000 0.000000 0.875000
0.125000 0.000000 0.875000
0.250000 0.000000 0.875000
0.375000 0.000000 0.875000
0.500000 0.000000 0.875000
0.625000 0.000000 0.875000
0.750000 0.000000 0.875000
0.875000 0.000000 0.875000
1.000000 0.000000 0.875000
0.000000 0.124999 0.875000
0.125000 0.125000 0.875000
0.250000 0.125000 0.875000
0.375000 0.125000 0.875000
0.500000 0.125000 0.875000
0.625000 0.125000 0.875000
0.749931 0.125127 0.874946
0.875000 0.125000 0.875000
1.000000 0.125000 0.875000
0.040149 0.295125 0.860200
0.126100 0.250940 0.874629
0.249998 0.249999 0.875001
0.375000 0.250000 0.875000
0.500000 0.250000 0.875000
0.625000 0.250000 0.875000
0.750002 0.249997 0.875001
0.875000 0.250000 0.875000
1.000000 0.250000 0.875000
0.098391 0.407367 0.853166
0.133189 0.378100 0.872527
0.250034 0.375021 0.874983
0.375218 0.375098 0.874974
0.500000 0.375000 0.875000
0.625000 0.375000 0.875000
0.750000 0.375000 0.875000
0.875000 0.375000 0.875000
1.000000 0.375000 0.875000
0.000000 0.499996 0.874988
0.149012 0.504205 0.871605
0.263970 0.503293 0.873528
0.389431 0.506456 0.879553
0.500011 0.500009 0.875016
0.625000 0.499999 0.874997
0.750000 0.500000 0.875000
0.875000 0.500000 0.875000
1.000000 0.500000 0.875000
0.029460 0.636003 0.901994
0.134404 0.627139 0.879586
0.253492 0.626063 0.877119
0.383920 0.630526 0.888216
0.510243 0.631379 0.892435
0.626520 0.626739 0.881051
0.749988 0.624990 0.874963
0.875000 0.624999 0.874999
1.000000 0.625000 0.875000
0.000004 0.750000 0.875000
0.129910 0.750487 0.877896
0.268635 0.751533 0.883421
0.382028 0.751919 0.883601
0.498105 0.756107 0.894120
0.625278 0.773659 0.937326
0.750541 0.764119 0.915561
0.878427 0.750595 0.880786
1.000000 0.754835 0.895290
0.000002 0.875000 0.875000
0.128311 0.875061 0.876690
0.270531 0.875033 0.883183
0.383967 0.874990 0.877939
0.518757 0.876083 0.885627
0.628745 0.877843 0.883125
0.772604 0.895901 0.888522
0.915498 0.905894 0.892388
1.000000 0.907415 0.910899
0.028148 0.996227 0.878368
0.125001 1.000000 0.875000
0.250000 1.000000 0.875000
0.375255 0.999925 0.875095
0.500108 0.999982 0.875060
0.628532 0.998962 0.879136
0.752364 0.998454 0.877406
0.883545 0.993268 0.882624
0.992122 1.000000 0.880663
0.000000 0.000000 1.000000
0.125000 0.000000 1.000000
0.250000 0.000000 1.000000
0.375000 0.000000 1.000000
0.500000 0.000000 1.000000
0.625000 0.000000 1.000000
0.750000 0.000000 1.000000
0.875000 0.000000 1.000000
1.000000 0.000000 1.000000
0.000000 0.125000 1.000000
0.125000 0.125000 1.000000
0.250000 0.125000 1.000000
0.375000 0.125000 1.000000
0.500000 0.125000 1.000000
0.625000 0.125000 1.000000
0.750000 0.125000 1.000000
0.875000 0.125000 1.000000
1.000000 0.125000 1.000000
0.000000 0.249830 1.000000
0.125000 0.250000 1.000000
0.250000 0.250000 1.000000
0.375000 0.250000 1.000000
0.500000 0.250000 1.000000
0.625000 0.250000 1.000000
0.750000 0.250000 1.000000
0.875000 0.250000 1.000000
1.000000 0.250000 1.000000
0.120940 0.421189 0.972284
0.124790 0.374896 1.000000
0.249920 0.374968 1.000000
0.375142 0.375071 0.999918
0.500000 0.375000 1.000000
0.625000 0.375000 1.000000
0.750000 0.375000 1.000000
0.875000 0.375000 1.000000
1.000000 0.375000 1.000000
0.000228 0.500162 0.999999
0.164666 0.528169 1.000000
0.271634 0.506532 0.990326
0.395923 0.507796 0.989733
0.499931 0.499970 1.000000
0.624995 0.500028 0.999980
0.750000 0.499998 1.000000
0.875000 0.500000 1.000000
1.000000 0.500000 1.000000
0.067628 0.643434 1.000000
0.131325 0.626111 0.999996
0.249987 0.625013 1.000000
0.423812 0.635190 0.997873
0.516801 0.632234 0.999805
0.625073 0.626127 0.999965
0.749949 0.625058 0.999984
0.875000 0.625000 1.000000
1.000000 0.625000 1.000000
0.114215 0.759865 0.999932
0.125216 0.750034 1.000000
0.251131 0.750145 0.999995
0.379075 0.751936 1.000000
0.509287 0.760451 0.999936
0.649917 0.755838 1.000000
0.751378 0.750559 1.000000
0.876686 0.749991 0.999155
1.000000 0.749996 0.999990
0.082045 0.870939 1.000000
0.125297 0.874992 0.999993
0.257984 0.874732 1.000000
0.388307 0.875056 0.999997
0.512754 0.880043 1.000000
0.640179 0.884550 1.000000
0.774510 0.895803 1.000000
0.904927 0.888793 0.997050
0.998648 0.881709 0.997354
0.101353 0.995711 0.998656
0.181862 0.998182 0.999771
0.271457 0.997173 1.000000
0.416476 0.991848 1.000000
0.521572 0.993240 1.000000
0.655304 0.993359 1.000000
0.767503 0.997794 1.000000
0.933977 0.980360 0.966657
0.999917 0.999983 1.000000
