kodachrome/data/kodachrome.cube
TITLE "kodachrome"
LUT_3D_SIZE 33
DOMAIN_MIN 0.0 0.0 0.0
DOMAIN_MAX 1.0 1.0 1.0
0.000000 0.000000 0.000000
0.009143 0.000000 0.000000
0.033620 0.000007 0.000009
0.066728 0.000202 0.001374
0.106478 0.000000 0.016382
0.151467 0.000000 0.012777
0.186736 0.000000 0.009216
0.219075 0.000000 0.001206
0.253475 0.000000 0.002216
0.285027 0.000000 0.003575
0.314125 0.000000 0.002461
0.344008 0.000000 0.000021
0.376660 0.003233 0.001180
0.408258 0.004495 0.001718
0.438794 0.013630 0.004192
0.469240 0.018997 0.007099
0.500012 0.012771 0.005046
0.530724 0.013488 0.006012
0.561707 0.024874 0.010564
0.595134 0.009824 0.000133
0.629230 0.031678 0.000000
0.661740 0.038532 0.000000
0.692614 0.056400 0.000000
0.720758 0.024401 0.000000
0.744480 0.060314 0.001770
0.772537 0.064368 0.013908
0.787542 0.096564 0.038069
0.813059 0.100630 0.036046
0.847315 0.103505 0.021970
0.891215 0.052178 0.011805
0.927021 0.032900 0.004493
0.964884 0.015298 0.000000
0.999412 0.002597 0.000000
0.000000 0.006384 0.000091
0.008083 0.006383 0.001234
0.028997 0.007932 0.003853
0.061691 0.006691 0.006491
0.102981 0.009409 0.006164
0.157276 0.016053 0.000897
0.192599 0.016036 0.001208
0.225450 0.024579 0.000321
0.262857 0.019460 0.002441
0.290516 0.019972 0.004068
0.313965 0.029280 0.000959
0.345322 0.028684 0.000000
0.375926 0.032684 0.000568
0.407389 0.033647 0.000771
0.438167 0.035881 0.001490
0.468930 0.032662 0.000487
0.499999 0.031464 0.000075
0.531235 0.031959 0.000283
0.562163 0.047973 0.007046
0.594241 0.035824 0.000591
0.627506 0.047012 0.000000
0.656321 0.038532 0.000000
0.687712 0.056400 0.000010
0.719273 0.036352 0.000000
0.749672 0.060314 0.000934
0.776342 0.064368 0.009999
0.790132 0.096564 0.035236
0.820311 0.100630 0.032317
0.836404 0.110446 0.034861
0.874217 0.111301 0.021972
0.928873 0.058347 0.003722
0.957250 0.075667 0.000000
0.999201 0.034563 0.000000
0.000476 0.033475 0.001433
0.005274 0.033047 0.006108
0.018630 0.041512 0.012626
0.066324 0.042641 0.018179
0.117713 0.034027 0.017360
0.175291 0.016053 0.009920
0.226825 0.016036 0.000013
0.236758 0.040727 0.000000
0.265973 0.042031 0.000559
0.298069 0.038783 0.002050
0.321250 0.049757 0.000035
0.350896 0.053217 0.000013
0.375941 0.062410 0.000027
0.406243 0.062568 0.000024
0.437801 0.064733 0.000748
0.468895 0.064038 0.000687
0.500052 0.063154 0.000363
0.531263 0.062426 0.000000
0.562450 0.065645 0.001482
0.593967 0.064379 0.000230
0.626105 0.069453 0.000000
0.656243 0.062416 0.000000
0.687483 0.062396 0.000000
0.718756 0.062417 0.000000
0.750045 0.062132 0.000000
0.781240 0.064368 0.000043
0.812154 0.096564 0.000649
0.840740 0.100630 0.003653
0.870046 0.110446 0.004487
0.889942 0.111301 0.009296
0.934027 0.071996 0.001853
0.957116 0.103544 0.001767
0.996361 0.075307 0.000308
0.000000 0.085572 0.000000
0.007453 0.088517 0.002772
0.013180 0.092092 0.010649
0.064792 0.097212 0.023925
0.112908 0.096798 0.030798
0.166375 0.092190 0.022927
0.233050 0.067159 0.007412
0.263251 0.065609 0.000000
0.285623 0.063283 0.000000
0.312011 0.061711 0.000000
0.320895 0.084379 0.000000
0.348102 0.091356 0.000004
0.378665 0.093703 0.000031
0.406221 0.093715 0.000012
0.437497 0.093782 0.000010
0.469647 0.096460 0.001183
0.500794 0.098060 0.003150
0.531423 0.095689 0.001793
0.562502 0.093734 0.000003
0.593756 0.093686 0.000000
0.625023 0.093895 0.000042
0.656264 0.093855 0.000045
0.687448 0.094410 0.000449
0.718661 0.094953 0.000781
0.749979 0.093819 0.000095
0.780171 0.096808 0.002417
0.803819 0.118575 0.019131
0.843662 0.100630 0.000217
0.875045 0.110446 0.000000
0.905422 0.111301 0.000533
0.931824 0.106878 0.003504
0.941916 0.154772 0.015391
0.988660 0.133476 0.000375
0.000000 0.138744 0.000000
0.015674 0.137181 0.000000
0.030740 0.139862 0.000000
0.056373 0.144742 0.004482
0.115474 0.136191 0.014348
0.152466 0.137924 0.019237
0.204481 0.143463 0.012753
0.256021 0.133183 0.000848
0.293766 0.127427 0.000000
0.321410 0.127373 0.000000
0.332942 0.126092 0.000000
0.352980 0.125553 0.000000
0.375313 0.125036 0.000000
0.406280 0.124983 0.000015
0.437486 0.124979 0.000000
0.469273 0.126595 0.000722
0.500918 0.132746 0.006691
0.531690 0.130009 0.004644
0.562491 0.125066 0.000089
0.593762 0.125077 0.000028
0.626304 0.134406 0.003760
0.657382 0.133225 0.003251
0.686860 0.134013 0.005690
0.717553 0.140870 0.010168
0.746776 0.135944 0.010603
0.777501 0.137292 0.011704
0.808496 0.136509 0.008860
0.843688 0.125152 0.000119
0.869074 0.137768 0.006569
0.885075 0.170867 0.022951
0.933639 0.133503 0.002403
0.958378 0.154772 0.006201
0.975480 0.187142 0.017661
0.000000 0.172188 0.000000
0.012468 0.175597 0.000000
0.018177 0.184630 0.000000
0.046335 0.183480 0.000000
0.106854 0.172900 0.000000
0.157014 0.169783 0.000788
0.190411 0.165920 0.001781
0.239827 0.178512 0.000330
0.281596 0.177911 0.000000
0.314889 0.176519 0.000000
0.350767 0.176304 0.000000
0.370654 0.168129 0.000000
0.391663 0.162417 0.000000
0.418267 0.159575 0.000000
0.437522 0.156214 0.000022
0.468784 0.156294 0.000000
0.500238 0.156480 0.000000
0.531259 0.156312 0.000055
0.562498 0.156249 0.000003
0.593754 0.156262 0.000000
0.625251 0.158034 0.000705
0.656461 0.158033 0.000913
0.687487 0.156597 0.000341
0.718714 0.156529 0.000205
0.748151 0.162449 0.006036
0.779379 0.162529 0.006116
0.812485 0.156326 0.000081
0.843759 0.156227 0.000000
0.867356 0.172236 0.009537
0.879209 0.201475 0.033216
0.937195 0.156857 0.000417
0.967347 0.156669 0.000094
0.967347 0.231648 0.024828
0.000000 0.195015 0.000000
0.016261 0.202699 0.000000
0.026460 0.206678 0.000000
0.027488 0.216155 0.000000
0.074434 0.211557 0.000000
0.146535 0.204275 0.000000
0.197136 0.203896 0.000000
0.225738 0.200658 0.000000
0.261942 0.200737 0.000000
0.306926 0.208641 0.000000
0.346907 0.212812 0.000000
0.380123 0.213935 0.000000
0.403598 0.206575 0.000000
0.433010 0.202001 0.000000
0.438034 0.187845 0.000009
0.468798 0.187528 0.000000
0.500160 0.187575 0.000000
0.531233 0.187475 0.000000
0.562497 0.187493 0.000000
0.593750 0.187442 0.000000
0.624974 0.188395 0.001215
0.655758 0.207687 0.025353
0.686433 0.207175 0.022301
0.718714 0.187988 0.000561
0.749991 0.187481 0.000000
0.781249 0.187508 0.000001
0.812523 0.187443 0.000000
0.843812 0.187382 0.000000
0.874928 0.187652 0.000084
0.904668 0.201475 0.001959
0.932993 0.195406 0.005557
0.966953 0.187962 0.000278
0.966953 0.251386 0.032368
0.000000 0.221766 0.000000
0.024610 0.223881 0.000100
0.029910 0.228353 0.000000
0.040441 0.232697 0.000000
0.068527 0.234447 0.000000
0.147003 0.235491 0.000000
0.199940 0.233312 0.000000
0.232404 0.234604 0.000000
0.263257 0.234002 0.000000
0.298323 0.238349 0.000000
0.333163 0.243529 0.000000
0.367918 0.244602 0.000000
0.408768 0.248905 0.000000
0.442986 0.249503 0.000000
0.458685 0.235649 0.000000
0.476605 0.224123 0.000000
0.500064 0.218769 0.000000
0.531239 0.218727 0.000000
0.562499 0.218738 0.000000
0.593747 0.218754 0.000017
0.624997 0.221528 0.004181
0.655978 0.228725 0.013651
0.687215 0.222891 0.004644
0.718734 0.218842 0.000086
0.750000 0.218735 0.000000
0.781229 0.218822 0.000101
0.812498 0.218755 0.000007
0.843756 0.218738 0.000000
0.875025 0.218697 0.000000
0.905173 0.220614 0.001316
0.933480 0.225835 0.004927
0.966170 0.219238 0.000345
0.966170 0.275555 0.035867
0.006840 0.251023 0.000000
0.030822 0.250092 0.000028
0.045149 0.253266 0.000000
0.063347 0.255642 0.000311
0.096969 0.258817 0.000233
0.172518 0.259426 0.000000
0.205221 0.259044 0.000000
0.246993 0.266119 0.000000
0.275144 0.270434 0.000000
0.297748 0.266302 0.000000
0.331098 0.273325 0.000000
0.359607 0.272998 0.000000
0.402138 0.282805 0.000000
0.432480 0.277237 0.000000
0.465948 0.275579 0.000000
0.484002 0.262634 0.000000
0.509015 0.255441 0.000000
0.536433 0.252863 0.000000
0.563235 0.250454 0.000150
0.594119 0.250515 0.000761
0.625051 0.251502 0.002336
0.656253 0.250886 0.001373
0.687502 0.249993 0.000000
0.718771 0.250110 0.000152
0.749517 0.251706 0.002239
0.779226 0.257048 0.009245
0.812473 0.250093 0.000122
0.843756 0.249978 0.000000
0.875000 0.249999 0.000000
0.906243 0.250012 0.000008
0.937622 0.249827 0.000000
0.960024 0.250503 0.000409
0.960024 0.321801 0.045457
0.029749 0.281916 0.000000
0.031507 0.281244 0.000000
0.068663 0.283182 0.000000
0.108063 0.287248 0.000000
0.152746 0.286617 0.000000
0.199602 0.287379 0.000452
0.225219 0.289901 0.000000
0.253376 0.292262 0.000000
0.275432 0.292078 0.000000
0.300020 0.292306 0.000000
0.322483 0.290728 0.000000
0.356180 0.295548 0.000000
0.389732 0.302052 0.000000
0.427304 0.304605 0.000000
0.465504 0.304237 0.000000
0.496352 0.301738 0.000000
0.525731 0.300677 0.000000
0.543338 0.288984 0.000000
0.564638 0.282536 0.000140
0.596284 0.283112 0.001087
0.625242 0.281513 0.000231
0.656899 0.281847 0.000301
0.687531 0.281363 0.000152
0.720357 0.290359 0.012571
0.750103 0.282724 0.002011
0.780843 0.282643 0.001826
0.812494 0.281265 0.000020
0.843751 0.281245 0.000000
0.875000 0.281251 0.000000
0.906256 0.281240 0.000000
0.937624 0.281064 0.000000
0.967809 0.281582 0.000315
0.967809 0.321801 0.038771
0.004483 0.312759 0.000081
0.031293 0.312497 0.000000
0.067608 0.313626 0.003240
0.111609 0.318220 0.014625
0.165362 0.319903 0.010442
0.208263 0.317873 0.000000
0.251793 0.320385 0.000135
0.273575 0.322216 0.000000
0.282109 0.322442 0.000000
0.298829 0.320344 0.000000
0.321297 0.317714 0.000000
0.356487 0.323094 0.000000
0.390457 0.329531 0.000000
0.423017 0.333947 0.000000
0.472939 0.346502 0.002427
0.500794 0.338224 0.004122
0.526447 0.333355 0.000000
0.559643 0.332066 0.000000
0.579014 0.322981 0.000000
0.600528 0.316331 0.000000
0.629092 0.315030 0.000000
0.659573 0.315734 0.001784
0.687534 0.312571 0.000075
0.719208 0.315156 0.003677
0.750054 0.312829 0.000455
0.781245 0.312488 0.000000
0.812500 0.312499 0.000000
0.843750 0.312500 0.000000
0.875000 0.312500 0.000000
0.906250 0.312500 0.000000
0.937502 0.312497 0.000000
0.968746 0.312506 0.000006
0.999690 0.321801 0.000470
0.000000 0.343751 0.000005
0.031240 0.343747 0.000000
0.062961 0.343839 0.001016
0.097752 0.344946 0.011424
0.144091 0.348388 0.038157
0.215974 0.348248 0.039321
0.261578 0.346520 0.000000
0.291960 0.350310 0.000000
0.291960 0.348188 0.000000
0.311562 0.350020 0.000000
0.336028 0.352081 0.000000
0.361418 0.352779 0.000000
0.400164 0.363791 0.000329
0.420714 0.358364 0.000000
0.453251 0.358949 0.009635
0.494260 0.368023 0.023820
0.526904 0.368280 0.018198
0.557485 0.366614 0.007679
0.582394 0.358213 0.000000
0.603978 0.349237 0.000000
0.634699 0.348476 0.000000
0.658117 0.344646 0.000000
0.687458 0.343733 0.000000
0.718743 0.343746 0.000006
0.750010 0.343752 0.000010
0.781266 0.343753 0.000007
0.812500 0.343750 0.000000
0.843750 0.343751 0.000001
0.875000 0.343751 0.000002
0.906250 0.343750 0.000000
0.937505 0.343741 0.000000
0.968742 0.343763 0.000020
0.998383 0.346416 0.003714
0.000000 0.374998 0.000000
0.031279 0.375002 0.000053
0.066875 0.375245 0.008143
0.102746 0.375517 0.016944
0.130753 0.375989 0.016343
0.202072 0.378152 0.056081
0.261935 0.377472 0.048636
0.297654 0.377765 0.019609
0.328710 0.378919 0.017941
0.328710 0.378342 0.002602
0.336232 0.379864 0.000000
0.375862 0.385403 0.000000
0.402932 0.390676 0.000000
0.432452 0.392657 0.000000
0.457852 0.392028 0.008584
0.491771 0.395518 0.024141
0.524296 0.396722 0.040810
0.559763 0.399935 0.046133
0.589179 0.396295 0.028893
0.612826 0.387459 0.000226
0.628907 0.377184 0.000000
0.656825 0.375338 0.000087
0.688548 0.375256 0.000234
0.719063 0.375073 0.000049
0.751292 0.375686 0.001180
0.782807 0.375797 0.001418
0.812517 0.375009 0.000016
0.843742 0.375022 0.000038
0.874996 0.375039 0.000066
0.906250 0.375000 0.000001
0.937516 0.374973 0.000000
0.968725 0.375043 0.000061
0.995185 0.382882 0.010780
0.000000 0.406250 0.000000
0.031261 0.406251 0.000021
0.064119 0.406342 0.003009
0.097040 0.406436 0.006113
0.125041 0.406254 0.000154
0.166417 0.406357 0.017155
0.231939 0.405525 0.049159
0.283184 0.405066 0.055196
0.333924 0.406553 0.064030
0.348017 0.406928 0.045491
0.358563 0.406955 0.011382
0.383414 0.409609 0.002407
0.415576 0.412841 0.002133
0.445528 0.420209 0.009173
0.456049 0.416219 0.011209
0.489722 0.420614 0.020058
0.522608 0.423906 0.040458
0.555576 0.424566 0.053030
0.589234 0.425398 0.055365
0.612664 0.420292 0.034855
0.635265 0.413256 0.011822
0.667424 0.413189 0.008913
0.700793 0.410919 0.005862
0.720992 0.406686 0.000311
0.751218 0.406879 0.001108
0.783130 0.407212 0.001738
0.812509 0.406261 0.000018
0.843736 0.406247 0.000000
0.874999 0.406257 0.000013
0.906249 0.406246 0.000000
0.937500 0.406250 0.000001
0.968749 0.406252 0.000003
0.999939 0.406349 0.000135
0.000000 0.437504 0.000000
0.031249 0.437500 0.000000
0.062506 0.437501 0.000010
0.093695 0.437506 0.000000
0.125166 0.437481 0.000425
0.176907 0.435853 0.038677
0.216398 0.435572 0.037835
0.277827 0.432579 0.061592
0.322957 0.431952 0.070650
0.368495 0.432011 0.082694
0.384483 0.434363 0.067910
0.384483 0.437345 0.027779
0.414684 0.439987 0.019311
0.425806 0.440121 0.017381
0.456622 0.443620 0.023064
0.490627 0.446547 0.028299
0.514267 0.447433 0.034133
0.548533 0.451109 0.050762
0.580097 0.448967 0.050886
0.616919 0.450777 0.054731
0.650624 0.450717 0.048097
0.680764 0.449135 0.014074
0.693071 0.439849 0.000464
0.727199 0.437214 0.000000
0.752934 0.437301 0.000000
0.782307 0.437434 0.000000
0.812499 0.437498 0.000000
0.843740 0.437495 0.000000
0.874998 0.437495 0.000000
0.906243 0.437478 0.000000
0.937506 0.437535 0.000077
0.968752 0.437522 0.000033
1.000000 0.437471 0.000000
0.003124 0.468568 0.003988
0.031274 0.468749 0.000031
0.062481 0.468751 0.000000
0.093665 0.468756 0.000000
0.125237 0.468730 0.000576
0.178577 0.466798 0.042661
0.207342 0.466815 0.038769
0.236648 0.466638 0.030902
0.310356 0.460911 0.072675
0.353530 0.460333 0.079339
0.390895 0.460465 0.100631
0.390895 0.465955 0.050136
0.390895 0.468279 0.023682
0.444628 0.467852 0.053802
0.457613 0.470342 0.044347
0.482009 0.471349 0.031917
0.515900 0.475338 0.047018
0.544039 0.478139 0.053903
0.574844 0.479800 0.068429
0.612808 0.478803 0.073699
0.645359 0.474537 0.055146
0.678424 0.472482 0.022176
0.705783 0.473044 0.000000
0.732970 0.472117 0.000063
0.764998 0.468248 0.000186
0.792407 0.467758 0.000000
0.815560 0.468291 0.000000
0.843753 0.468747 0.000000
0.874989 0.468751 0.000000
0.906250 0.468749 0.000000
0.937500 0.468753 0.000007
0.968756 0.468760 0.000062
1.000000 0.468757 0.000054
0.031857 0.498119 0.041169
0.031857 0.499987 0.000280
0.062393 0.500006 0.000000
0.093737 0.500001 0.000000
0.125008 0.499999 0.000022
0.159106 0.499714 0.006838
0.195212 0.499214 0.018637
0.225834 0.498890 0.016565
0.306766 0.490728 0.075640
0.368609 0.484796 0.092995
0.399264 0.485076 0.103501
0.429073 0.485581 0.106704
0.429073 0.491688 0.094358
0.452437 0.495164 0.065216
0.460274 0.498991 0.052596
0.476532 0.500061 0.022155
0.515867 0.503071 0.060016
0.545353 0.504089 0.076649
0.572223 0.506729 0.066252
0.608310 0.510926 0.085293
0.640827 0.505757 0.076138
0.676705 0.502393 0.053966
0.715152 0.501762 0.022776
0.739671 0.503852 0.020301
0.779066 0.501772 0.013395
0.814231 0.498520 0.004442
0.825802 0.498110 0.000000
0.843776 0.499983 0.000000
0.874954 0.500006 0.000001
0.906247 0.499997 0.000000
0.937487 0.499998 0.000029
0.969382 0.500929 0.006568
1.000000 0.500924 0.006477
0.000435 0.531225 0.000555
0.031256 0.531250 0.000008
0.062497 0.531250 0.000000
0.093750 0.531250 0.000001
0.124995 0.531251 0.000000
0.156119 0.531272 0.000000
0.187701 0.531212 0.000571
0.246677 0.525409 0.055626
0.312728 0.518128 0.103590
0.339222 0.518288 0.095284
0.381743 0.515459 0.098328
0.428319 0.513826 0.113917
0.442446 0.517380 0.116653
0.442446 0.524924 0.064732
0.461671 0.526935 0.057172
0.477617 0.530065 0.026684
0.510133 0.530810 0.040210
0.551789 0.533208 0.080751
0.583406 0.534496 0.091884
0.605615 0.535750 0.078679
0.638709 0.538875 0.086435
0.671672 0.538779 0.088822
0.708712 0.537884 0.068385
0.751607 0.535479 0.064426
0.770532 0.533946 0.045227
0.805383 0.532465 0.028540
0.820952 0.531481 0.007603
0.843735 0.531258 0.000007
0.874943 0.531255 0.000000
0.906246 0.531246 0.000000
0.937509 0.531263 0.000093
0.969665 0.532592 0.009490
1.000000 0.532618 0.009880
0.000000 0.562506 0.000000
0.031249 0.562500 0.000000
0.062501 0.562500 0.000001
0.093750 0.562500 0.000000
0.125000 0.562500 0.000000
0.156216 0.562506 0.000000
0.187390 0.562522 0.000000
0.224762 0.561177 0.017185
0.299058 0.551475 0.087318
0.345630 0.547872 0.108533
0.385876 0.545742 0.112037
0.410709 0.547706 0.101718
0.421115 0.553084 0.085189
0.475498 0.548537 0.126296
0.478220 0.554513 0.093099
0.483289 0.560263 0.049226
0.525124 0.559996 0.077025
0.547590 0.562003 0.063142
0.582579 0.564170 0.097062
0.621071 0.568959 0.109665
0.644039 0.571391 0.103917
0.673928 0.573067 0.111950
0.703632 0.572078 0.100141
0.744603 0.570783 0.093816
0.784136 0.566319 0.083000
0.821313 0.563950 0.070297
0.832914 0.562641 0.028347
0.847585 0.561959 0.000000
0.874983 0.562489 0.000000
0.906229 0.562503 0.000000
0.937499 0.562494 0.000000
0.968760 0.562529 0.000312
1.000000 0.564575 0.030255
0.000000 0.593762 0.000000
0.031248 0.593750 0.000000
0.062501 0.593750 0.000001
0.093750 0.593750 0.000000
0.125000 0.593750 0.000001
0.156248 0.593750 0.000000
0.187418 0.593767 0.000000
0.218860 0.593726 0.000304
0.273899 0.588880 0.055592
0.340426 0.581810 0.106206
0.362780 0.583565 0.097427
0.416310 0.580537 0.122247
0.436667 0.583987 0.112387
0.462058 0.584801 0.106974
0.495053 0.583813 0.122859
0.495053 0.591028 0.063618
0.525711 0.590643 0.071717
0.546122 0.593000 0.063051
0.582133 0.594271 0.082635
0.619347 0.597687 0.095326
0.649613 0.599338 0.108556
0.671129 0.598953 0.116158
0.701759 0.599407 0.106441
0.739830 0.599077 0.110267
0.776298 0.596213 0.093362
0.832131 0.590942 0.080200
0.856046 0.589447 0.036937
0.872929 0.589054 0.000000
0.882993 0.592106 0.000000
0.906215 0.593752 0.000000
0.937452 0.593760 0.000000
0.968744 0.593748 0.000000
0.999997 0.593928 0.002544
0.000000 0.625001 0.000000
0.031250 0.625000 0.000000
0.062500 0.625000 0.000000
0.093750 0.625000 0.000000
0.125000 0.625000 0.000000
0.156249 0.625000 0.000000
0.187459 0.625006 0.000000
0.218810 0.624995 0.000238
0.262007 0.623327 0.037687
0.305771 0.620894 0.061338
0.395938 0.609945 0.123123
0.406601 0.614067 0.107444
0.429047 0.615989 0.104118
0.466949 0.615214 0.111880
0.489043 0.616971 0.093937
0.524648 0.616432 0.106538
0.552595 0.616663 0.098036
0.552612 0.621579 0.059704
0.586661 0.621191 0.071882
0.614772 0.621888 0.081137
0.646422 0.623468 0.105516
0.674986 0.624733 0.120695
0.698043 0.625805 0.112870
0.737247 0.624140 0.109887
0.788013 0.622205 0.119251
0.824068 0.621708 0.105914
0.867007 0.617936 0.085838
0.899574 0.615794 0.055363
0.906523 0.619332 0.010894
0.908511 0.624622 0.002374
0.937759 0.624958 0.000457
0.968745 0.625001 0.000000
0.999994 0.624994 0.000000
0.000001 0.656250 0.000001
0.031250 0.656250 0.000000
0.062500 0.656250 0.000000
0.093750 0.656250 0.000000
0.125000 0.656250 0.000000
0.156250 0.656250 0.000000
0.187500 0.656250 0.000000
0.218743 0.656251 0.000000
0.249935 0.656266 0.000000
0.283088 0.656028 0.006433
0.362921 0.648817 0.088989
0.408579 0.645689 0.101498
0.458659 0.640283 0.127932
0.485734 0.640785 0.130122
0.518348 0.641847 0.121900
0.522112 0.645905 0.114647
0.534135 0.649443 0.083378
0.548801 0.651898 0.068821
0.581761 0.651473 0.068590
0.604116 0.653884 0.051613
0.637010 0.653003 0.082339
0.680047 0.649832 0.133658
0.706829 0.652028 0.136264
0.734978 0.654771 0.130635
0.777722 0.654061 0.132899
0.823903 0.652188 0.138294
0.859763 0.650819 0.121981
0.915142 0.643139 0.091450
0.939807 0.641660 0.045240
0.939807 0.652240 0.026380
0.944599 0.654702 0.014249
0.969347 0.656091 0.001837
0.999954 0.655938 0.015910
0.000000 0.687500 0.000000
0.031250 0.687500 0.000000
0.062500 0.687500 0.000000
0.093750 0.687500 0.000000
0.125000 0.687500 0.000000
0.156250 0.687500 0.000000
0.187500 0.687500 0.000001
0.218749 0.687500 0.000000
0.249949 0.687507 0.000000
0.281140 0.687517 0.000000
0.314699 0.687265 0.006570
0.367611 0.684880 0.052235
0.456935 0.674493 0.120332
0.488215 0.668764 0.143963
0.525688 0.665882 0.135408
0.548704 0.666966 0.142193
0.556878 0.671999 0.140277
0.577434 0.674180 0.144958
0.581203 0.682120 0.067121
0.604318 0.684558 0.052480
0.638996 0.683920 0.073249
0.667209 0.684645 0.079289
0.709279 0.685375 0.126240
0.741805 0.690957 0.141841
0.769113 0.695066 0.146001
0.812621 0.692527 0.127000
0.870989 0.686439 0.125379
0.937974 0.667964 0.096844
0.945343 0.666797 0.070240
0.945343 0.682460 0.029223
0.950201 0.684364 0.029228
0.971383 0.686693 0.018924
1.000000 0.686586 0.052793
0.000000 0.718750 0.000000
0.031250 0.718750 0.000000
0.062500 0.718750 0.000000
0.093750 0.718750 0.000000
0.125000 0.718750 0.000000
0.156250 0.718750 0.000000
0.187500 0.718750 0.000000
0.218750 0.718750 0.000000
0.250000 0.718750 0.000000
0.281237 0.718752 0.000000
0.312298 0.718779 0.000000
0.344398 0.718696 0.001641
0.395533 0.716623 0.046271
0.444544 0.713287 0.079513
0.513181 0.700935 0.141115
0.562409 0.691675 0.161628
0.562409 0.701333 0.123952
0.595642 0.701612 0.156049
0.610739 0.706708 0.142004
0.613772 0.713526 0.070717
0.633559 0.716860 0.049267
0.656648 0.718658 0.002868
0.690899 0.718965 0.035093
0.736878 0.721058 0.102185
0.782918 0.730905 0.149098
0.835815 0.726798 0.138563
0.882376 0.715508 0.126796
0.949352 0.695567 0.104447
0.949352 0.697931 0.080528
0.949352 0.714170 0.030293
0.949352 0.716686 0.021665
0.974216 0.718224 0.032962
1.000000 0.719237 0.049194
0.000000 0.750000 0.000000
0.031250 0.750000 0.000000
0.062500 0.750000 0.000000
0.093750 0.750000 0.000000
0.125000 0.750000 0.000000
0.156250 0.750000 0.000000
0.187500 0.750000 0.000000
0.218750 0.750000 0.000000
0.250000 0.750000 0.000001
0.281250 0.750000 0.000001
0.312486 0.750002 0.000000
0.343645 0.750012 0.000000
0.375719 0.749925 0.002404
0.418622 0.748524 0.039918
0.483168 0.745299 0.101752
0.550533 0.737915 0.152342
0.583813 0.731879 0.164085
0.584596 0.735432 0.141607
0.600796 0.741575 0.108856
0.613253 0.745380 0.082512
0.633426 0.748116 0.047383
0.662008 0.748721 0.036678
0.692426 0.749624 0.034976
0.725938 0.749790 0.045079
0.775725 0.754089 0.098828
0.835073 0.754734 0.133764
0.874191 0.755133 0.140977
0.945882 0.743403 0.136470
0.953413 0.734287 0.077785
0.953413 0.748132 0.014025
0.953413 0.748038 0.025889
0.969457 0.749886 0.003887
1.000000 0.750073 0.036281
0.000000 0.781250 0.000000
0.031250 0.781250 0.000000
0.062500 0.781250 0.000000
0.093750 0.781250 0.000000
0.125000 0.781250 0.000000
0.156250 0.781250 0.000000
0.187500 0.781250 0.000000
0.218750 0.781250 0.000000
0.250000 0.781250 0.000000
0.281250 0.781250 0.000000
0.312501 0.781250 0.000002
0.343740 0.781251 0.000000
0.374923 0.781256 0.000000
0.407788 0.781066 0.006404
0.448472 0.780542 0.042161
0.496512 0.779591 0.084291
0.557825 0.771507 0.140416
0.618611 0.757139 0.188668
0.634968 0.757550 0.203759
0.645753 0.765418 0.166220
0.645753 0.775282 0.086396
0.677363 0.775370 0.088496
0.692292 0.780159 0.033086
0.719804 0.781152 0.007852
0.751991 0.781294 0.013816
0.785449 0.781432 0.028870
0.840714 0.783841 0.101299
0.910622 0.781823 0.145857
0.943962 0.770702 0.102989
0.943962 0.780036 0.005008
0.948666 0.778563 0.033293
0.973906 0.779011 0.035958
0.999989 0.779026 0.048765
0.000000 0.812500 0.000000
0.031250 0.812500 0.000000
0.062500 0.812500 0.000000
0.093750 0.812500 0.000000
0.125000 0.812500 0.000000
0.156250 0.812500 0.000000
0.187500 0.812500 0.000000
0.218750 0.812500 0.000000
0.250000 0.812500 0.000000
0.281250 0.812500 0.000000
0.312500 0.812500 0.000000
0.343750 0.812500 0.000001
0.374996 0.812500 0.000000
0.406226 0.812503 0.000000
0.437437 0.812516 0.000000
0.469265 0.812466 0.003237
0.512408 0.810929 0.057502
0.568155 0.805892 0.123825
0.626303 0.798673 0.205980
0.661922 0.789094 0.229344
0.672199 0.792913 0.154684
0.687636 0.801224 0.120964
0.707783 0.805062 0.097119
0.728927 0.809571 0.047858
0.755940 0.810765 0.034104
0.781207 0.812445 0.000000
0.814461 0.812264 0.014704
