kodachrome/data/kodachrome.cube
TITLE "kodachrome"
LUT_3D_SIZE 5
DOMAIN_MIN 0.0 0.0 0.0
DOMAIN_MAX 1.0 1.0 1.0
0.000000 0.000000 0.000000
0.253475 0.000000 0.002216
0.500012 0.012771 0.005046
0.744480 0.060314 0.001770
0.999412 0.002597 0.000000
0.006840 0.251023 0.000000
0.275144 0.270434 0.000000
0.509015 0.255441 0.000000
0.749517 0.251706 0.002239
0.960024 0.321801 0.045457
0.031857 0.498119 0.041169
0.306766 0.490728 0.075640
0.515867 0.503071 0.060016
0.779066 0.501772 0.013395
1.000000 0.500924 0.006477
0.000000 0.750000 0.000000
0.250000 0.750000 0.000001
0.583813 0.731879 0.164085
0.775725 0.754089 0.098828
1.000000 0.750073 0.036281
0.000002 1.000000 0.000002
0.250000 1.000000 0.000000
0.500000 1.000000 0.000000
0.749861 1.000000 0.000000
0.999677 0.987393 0.165456
0.000000 0.000000 0.250080
0.250000 0.000000 0.249999
0.500006 0.000023 0.250202
0.749102 0.004700 0.252245
0.968498 0.099679 0.235909
0.000000 0.252493 0.248898
0.306091 0.289357 0.270062
0.515706 0.259294 0.247774
0.749971 0.250050 0.250024
0.997993 0.252919 0.251146
0.000124 0.499999 0.250089
0.254004 0.500080 0.253761
0.530155 0.513709 0.276778
0.767914 0.504605 0.260531
1.000000 0.499995 0.249994
0.040470 0.746558 0.276308
0.249991 0.750001 0.249993
0.501213 0.749753 0.253986
0.753013 0.750989 0.268804
1.000000 0.753429 0.286068
0.073716 0.987891 0.297679
0.250000 1.000000 0.250000
0.500000 1.000000 0.250000
0.750053 0.999983 0.250242
0.998510 0.988780 0.340147
0.000000 0.000000 0.500005
0.250000 0.000000 0.500000
0.500000 0.000000 0.500000
0.750000 0.000000 0.500000
1.000000 0.000000 0.500000
0.064568 0.288600 0.502788
0.260249 0.258205 0.504559
0.500001 0.250001 0.500000
0.750007 0.249988 0.499990
0.997292 0.254205 0.503456
0.000000 0.500000 0.500000
0.265799 0.504387 0.511010
0.518815 0.524708 0.551282
0.757177 0.522878 0.526424
0.999688 0.500646 0.500425
0.028486 0.749188 0.516010
0.250144 0.749987 0.500133
0.510742 0.749722 0.517187
0.762464 0.773843 0.622669
1.000000 0.756030 0.515472
0.000000 1.000000 0.499997
0.269546 0.999933 0.500193
0.499999 1.000000 0.499997
0.749988 1.000000 0.499826
0.999757 0.963769 0.703687
0.000000 0.000000 0.750000
0.250000 0.000000 0.750000
0.500000 0.000000 0.750000
0.750000 0.000000 0.750000
1.000000 0.000000 0.750000
0.132707 0.332428 0.675874
0.250009 0.250005 0.750001
0.500000 0.250000 0.750000
0.750000 0.250000 0.750000
1.000000 0.250000 0.750000
0.035818 0.505228 0.755389
0.261549 0.504359 0.756551
0.501955 0.503155 0.757343
0.750000 0.499998 0.749997
0.998338 0.501593 0.750684
0.000000 0.750000 0.750000
0.250004 0.750001 0.750004
0.518625 0.758998 0.786655
0.790977 0.784663 0.791735
0.995617 0.774312 0.787800
0.060484 0.985650 0.785104
0.250000 1.000000 0.750000
0.500101 0.999961 0.750079
0.755111 0.996281 0.761669
0.994812 0.999329 0.773585
0.000000 0.000000 1.000000
0.250000 0.000000 1.000000
0.500000 0.000000 1.000000
0.750000 0.000000 1.000000
1.000000 0.000000 1.000000
0.000000 0.249830 1.000000
0.250000 0.250000 1.000000
0.500000 0.250000 1.000000
0.750000 0.250000 1.000000
1.000000 0.250000 1.000000
0.000228 0.500162 0.999999
0.271634 0.506532 0.990326
0.499931 0.499970 1.000000
0.750000 0.499998 1.000000
1.000000 0.500000 1.000000
0.114215 0.759865 0.999932
0.251131 0.750145 0.999995
0.509287 0.760451 0.999936
0.751378 0.750559 1.000000
1.000000 0.749996 0.999990
0.101353 0.995711 0.998656
0.271457 0.997173 1.000000
0.521572 0.993240 1.000000
0.767503 0.997794 1.000000
0.999917 0.999983 1.000000
