artifacts/kodachrome.cube
TITLE "kodachrome"
LUT_3D_SIZE 9
DOMAIN_MIN 0.0 0.0 0.0
DOMAIN_MAX 1.0 1.0 1.0
0.006541 0.007215 0.000920
0.130835 0.049775 0.029038
0.242443 0.079117 0.060466
0.352233 0.063468 0.020638
0.426694 0.130648 0.084933
0.558291 0.090769 0.012761
0.626714 0.216239 0.169806
0.815004 0.110554 0.087279
1.000000 0.000000 0.000000
0.068705 0.135774 0.052603
0.149772 0.134987 0.032247
0.232660 0.132253 0.034709
0.339255 0.116994 0.029455
0.446326 0.153208 0.078724
0.551934 0.181329 0.109638
0.628842 0.264540 0.206289
0.762535 0.269041 0.168448
0.973585 0.155234 0.034234
0.122637 0.210659 0.077841
0.170776 0.213539 0.087719
0.234154 0.219873 0.057391
0.328777 0.227435 0.042173
0.457512 0.233663 0.075907
0.554221 0.267170 0.141720
0.709060 0.269474 0.043661
0.796241 0.314118 0.108993
0.968291 0.293053 0.142612
0.076150 0.356094 0.051655
0.263218 0.318404 0.148395
0.296223 0.327679 0.130112
0.353567 0.336486 0.113399
0.460580 0.353823 0.129846
0.607366 0.343955 0.083476
0.726104 0.370632 0.078466
0.867589 0.373501 0.022808
1.000000 0.367203 0.000000
0.249384 0.455233 0.274880
0.166442 0.486976 0.053790
0.369629 0.447730 0.259080
0.407078 0.455653 0.241724
0.485698 0.462797 0.198903
0.589700 0.467087 0.195633
0.724757 0.447748 0.145337
0.866151 0.470786 0.062759
0.997689 0.500086 0.049136
0.000000 0.629931 0.000000
0.113121 0.629655 0.000000
0.277194 0.601410 0.127612
0.421354 0.563220 0.347498
0.504192 0.564226 0.353578
0.585317 0.573409 0.289067
0.766844 0.561464 0.173390
0.887408 0.560799 0.003015
0.966142 0.585866 0.106652
0.000000 0.755769 0.000000
0.117927 0.751950 0.000000
0.250282 0.750886 0.000000
0.380650 0.736785 0.106887
0.467706 0.707089 0.438595
0.661638 0.680193 0.404765
0.790361 0.692791 0.320516
0.855415 0.686694 0.250115
1.000000 0.660430 0.000000
0.000000 0.891119 0.000000
0.117432 0.876792 0.000000
0.251661 0.874910 0.000000
0.374107 0.876930 0.000000
0.487996 0.880035 0.000000
0.586317 0.877597 0.023493
0.815053 0.820419 0.379702
0.877856 0.831687 0.357217
0.999575 0.819025 0.006899
0.000000 1.000000 0.000000
0.122693 1.000000 0.000000
0.251778 0.999613 0.001573
0.375186 0.999714 0.001124
0.503026 0.999237 0.000000
0.627412 1.000000 0.000000
0.740433 1.000000 0.000000
0.874665 1.000000 0.000000
0.994893 1.000000 0.050204
0.000000 0.034687 0.162761
0.146031 0.045040 0.124047
0.256060 0.067297 0.131027
0.362207 0.026132 0.142045
0.419715 0.138981 0.183309
0.555121 0.100895 0.143941
0.610777 0.234624 0.241938
0.725693 0.280819 0.230905
0.918082 0.288681 0.237785
0.071653 0.139150 0.098586
0.152726 0.136444 0.098161
0.235971 0.129835 0.123322
0.337232 0.131717 0.119941
0.434706 0.161488 0.148139
0.507313 0.223558 0.232259
0.621902 0.262460 0.250333
0.784418 0.243243 0.207746
0.935775 0.238405 0.173745
0.115982 0.212088 0.126053
0.159534 0.215294 0.116972
0.215022 0.222188 0.109529
0.330240 0.221427 0.112133
0.472485 0.226583 0.122132
0.555091 0.265767 0.169104
0.672241 0.311294 0.210441
0.831284 0.288808 0.131937
0.973275 0.285606 0.156043
0.223580 0.316643 0.168154
0.242435 0.319683 0.158569
0.286893 0.328681 0.158067
0.350279 0.338210 0.137767
0.464458 0.351725 0.153364
0.605652 0.346181 0.161070
0.710313 0.370671 0.179337
0.815401 0.390848 0.216399
0.953497 0.395221 0.191354
0.207699 0.462599 0.241383
0.276337 0.457082 0.237853
0.361940 0.447386 0.283397
0.403523 0.456814 0.252447
0.484029 0.463060 0.218096
0.588268 0.470747 0.212716
0.727677 0.450581 0.191555
0.858238 0.472416 0.171519
0.990950 0.492661 0.118632
0.373453 0.544149 0.419760
0.157567 0.616945 0.159441
0.260543 0.619877 0.150828
0.428721 0.567328 0.347518
0.499715 0.565828 0.360824
0.585941 0.569389 0.310887
0.729198 0.576890 0.282430
0.872812 0.565906 0.087233
0.980601 0.575321 0.130140
0.098159 0.727833 0.207004
0.147428 0.744816 0.143985
0.243269 0.752123 0.116318
0.378579 0.743870 0.153847
0.494817 0.710204 0.406877
0.657210 0.686632 0.411279
0.778377 0.694181 0.294668
0.855999 0.688310 0.284783
1.000000 0.706165 0.098119
0.513253 0.776705 0.520566
0.150380 0.868444 0.147264
0.242146 0.876709 0.118351
0.373967 0.876500 0.118182
0.498948 0.876074 0.125378
0.656126 0.844013 0.314966
0.787773 0.837864 0.309488
0.878046 0.830526 0.365000
1.000000 0.829831 0.193124
0.649355 0.889595 0.475474
0.122715 0.999639 0.124545
0.242120 1.000000 0.120709
0.375947 0.999639 0.126421
0.500274 1.000000 0.120961
0.618370 1.000000 0.085226
0.744332 1.000000 0.099473
0.884064 0.986402 0.258878
0.999236 0.961630 0.340103
0.000000 0.058280 0.240594
0.154522 0.021047 0.239278
0.249401 0.009306 0.272168
0.343750 0.039060 0.254902
0.483342 0.025923 0.255137
0.613844 0.022452 0.257978
0.637722 0.190900 0.321536
0.725492 0.275184 0.315909
0.983943 0.098529 0.197518
0.099153 0.140818 0.200793
0.163482 0.133691 0.193138
0.253024 0.122014 0.186433
0.341312 0.123240 0.210981
0.412022 0.153271 0.249914
0.533283 0.194541 0.294827
0.645161 0.237545 0.303667
0.733225 0.300180 0.301376
0.883498 0.317785 0.308591
0.115453 0.216594 0.172087
0.142526 0.216064 0.169689
0.244683 0.212916 0.180282
0.336664 0.214837 0.226193
0.473428 0.213963 0.201915
0.557281 0.267688 0.242651
0.660118 0.315207 0.294404
0.797071 0.314574 0.279808
0.899470 0.361246 0.308129
0.182597 0.325113 0.230699
0.208620 0.327921 0.217070
0.269327 0.329261 0.199172
0.347585 0.345012 0.206158
0.475029 0.350450 0.213714
0.633828 0.334914 0.204281
0.710321 0.378000 0.262449
0.825660 0.395988 0.286715
0.983327 0.378692 0.268565
0.171062 0.472576 0.314126
0.229006 0.467587 0.337289
0.327299 0.458553 0.310654
0.387531 0.461143 0.283407
0.492245 0.466604 0.253790
0.603101 0.467917 0.274732
0.732408 0.460852 0.251766
0.818852 0.461832 0.339167
0.959812 0.474875 0.274702
0.216856 0.578477 0.375687
0.232618 0.591401 0.343183
0.335327 0.569248 0.429746
0.420534 0.570432 0.402506
0.485023 0.570055 0.389119
0.594698 0.579044 0.353146
0.722041 0.574569 0.329592
0.846051 0.564320 0.271446
0.972246 0.569803 0.253986
0.083072 0.732493 0.303228
0.133281 0.748438 0.259194
0.248659 0.749012 0.256298
0.387107 0.727713 0.341684
0.500878 0.693426 0.491158
0.610664 0.687913 0.482302
0.758262 0.689526 0.358489
0.847233 0.695597 0.325837
1.000000 0.680270 0.200358
0.397572 0.807741 0.479787
0.245168 0.848719 0.342351
0.232180 0.879689 0.235228
0.371948 0.878313 0.239496
0.501438 0.871214 0.265739
0.651402 0.845944 0.363598
0.815319 0.825551 0.503685
0.869316 0.831848 0.443940
0.984034 0.832510 0.369498
0.738518 0.885710 0.555702
0.203937 0.983262 0.282742
0.231192 1.000000 0.241080
0.376303 0.999391 0.251869
0.499812 1.000000 0.243826
0.619268 1.000000 0.221350
0.744251 1.000000 0.223651
0.894016 0.988469 0.441808
1.000000 0.994491 0.520654
0.000000 0.032275 0.382330
0.129810 0.004738 0.376524
0.246222 0.000480 0.384526
0.373607 0.001805 0.376889
0.501158 0.000000 0.371720
0.630794 0.000000 0.372568
0.756152 0.000000 0.368939
0.846364 0.054731 0.392576
0.980887 0.083243 0.424672
0.114026 0.157868 0.267543
0.195281 0.127215 0.291486
0.261980 0.104228 0.345242
0.358378 0.110394 0.358629
0.483081 0.121083 0.363358
0.617124 0.123328 0.384638
0.693315 0.173639 0.411160
0.771212 0.238335 0.386437
0.984817 0.180374 0.388317
0.122744 0.235586 0.298087
0.139806 0.238704 0.301162
0.256339 0.223244 0.298854
0.366425 0.222210 0.301081
0.444544 0.234775 0.362297
0.574521 0.252896 0.336387
0.670749 0.298910 0.382278
0.725230 0.372593 0.398019
0.978336 0.286573 0.401773
0.072937 0.351893 0.338578
0.167553 0.338837 0.326116
0.246505 0.344891 0.327103
0.365462 0.339877 0.340876
0.482926 0.350951 0.343876
0.603360 0.357351 0.344268
0.726458 0.381762 0.370449
0.816509 0.404164 0.398086
0.955396 0.408622 0.409408
0.153823 0.475035 0.405763
0.151161 0.482578 0.393373
0.228535 0.477806 0.401822
0.349395 0.481126 0.400934
0.467553 0.486146 0.386237
0.602574 0.473915 0.363837
0.753905 0.456462 0.344860
0.849778 0.472043 0.382585
0.974308 0.488100 0.387214
0.288495 0.562776 0.472365
0.235707 0.582052 0.450892
0.301032 0.573506 0.454514
0.371843 0.577942 0.447217
0.480186 0.577149 0.426711
0.585724 0.581657 0.415572
0.712971 0.580104 0.382646
0.854430 0.561840 0.365204
0.978209 0.557260 0.331941
0.397658 0.664676 0.558469
0.257221 0.710048 0.445234
0.270974 0.738896 0.393253
0.390564 0.731563 0.414044
0.515387 0.693966 0.495899
0.600652 0.691816 0.493010
0.727053 0.701223 0.440122
0.837379 0.701456 0.413923
1.000000 0.677601 0.299368
0.430547 0.791518 0.568802
0.126242 0.875250 0.371185
0.240880 0.877615 0.370534
0.374789 0.877652 0.370618
0.499988 0.868164 0.399192
0.663936 0.836469 0.474636
0.803820 0.837063 0.508399
0.870675 0.846415 0.504122
0.967308 0.835973 0.519702
0.000000 1.000000 0.385829
0.274720 0.966260 0.457166
0.254854 0.999503 0.375348
0.369254 1.000000 0.369957
0.499351 1.000000 0.366242
0.621705 1.000000 0.357965
0.749077 1.000000 0.375018
0.860500 0.987402 0.465585
0.981883 0.997721 0.590952
0.000000 0.003471 0.508588
0.113409 0.000000 0.518261
0.247360 0.000441 0.505594
0.376008 0.000000 0.500167
0.500430 0.000000 0.500202
0.625229 0.000000 0.499512
0.752530 0.000000 0.498489
0.880264 0.000000 0.497870
0.999424 0.000000 0.499801
0.136357 0.174437 0.331491
0.195547 0.144007 0.370375
0.258386 0.123182 0.479568
0.375359 0.124645 0.501558
0.502903 0.125375 0.501708
0.626603 0.124382 0.500424
0.750872 0.123175 0.500072
0.879767 0.119224 0.500793
1.000000 0.119145 0.497055
0.120114 0.248943 0.406236
0.173041 0.248972 0.410291
0.283354 0.222146 0.467441
0.362725 0.234850 0.491190
0.476141 0.242950 0.483772
0.614344 0.249724 0.496330
0.742785 0.243724 0.522564
0.826570 0.284806 0.510033
0.997592 0.274351 0.525481
0.174990 0.344670 0.462475
0.187269 0.347325 0.469794
0.253595 0.354272 0.467276
0.345311 0.355081 0.496314
0.477787 0.351439 0.481898
0.583309 0.375615 0.497750
0.728045 0.381937 0.500971
0.817388 0.400877 0.511890
0.948706 0.419657 0.457509
0.009920 0.497198 0.504960
0.148358 0.492429 0.480156
0.244703 0.491122 0.492568
0.340283 0.488438 0.516433
0.474137 0.489472 0.514665
0.605086 0.474214 0.499100
0.740661 0.465610 0.498429
0.841127 0.465202 0.478807
0.975145 0.489189 0.507750
0.161306 0.582578 0.528206
0.154009 0.610054 0.517285
0.242759 0.589934 0.526221
0.391670 0.576951 0.528983
0.470451 0.585463 0.514367
0.573008 0.592320 0.514451
0.709501 0.578222 0.474928
0.849991 0.553013 0.470851
0.983967 0.579982 0.463353
0.313925 0.674752 0.573043
0.282430 0.695660 0.562420
0.299861 0.718096 0.529199
0.411730 0.693850 0.555188
0.511079 0.690735 0.544629
0.597543 0.696955 0.551154
0.695555 0.703556 0.525662
0.830488 0.700070 0.483684
1.000000 0.701358 0.463859
0.095449 0.854995 0.529512
0.139567 0.871101 0.504152
0.368758 0.837856 0.569220
0.485649 0.820792 0.610329
0.499911 0.867640 0.505735
0.671010 0.834631 0.556669
0.792738 0.843251 0.558214
0.861702 0.852573 0.583664
1.000000 0.843685 0.552722
0.000000 1.000000 0.455654
0.365254 0.941090 0.642279
0.350361 0.967180 0.584250
0.363006 1.000000 0.496817
0.498423 1.000000 0.496287
0.622725 1.000000 0.491547
0.760279 0.988127 0.554061
0.871923 0.984974 0.606642
0.958999 0.961419 0.662218
0.000000 0.000000 0.651570
0.117111 0.000000 0.637846
0.247750 0.000000 0.631395
0.375053 0.000051 0.624785
0.499916 0.000124 0.624897
0.624948 0.000061 0.625157
0.749785 0.000320 0.625245
0.874884 0.000057 0.624897
1.000000 0.000000 0.624487
0.136286 0.160546 0.481241
0.156095 0.135606 0.573118
0.259296 0.132667 0.595520
0.374818 0.124774 0.627295
0.500940 0.125093 0.625165
0.625232 0.125147 0.624640
0.750816 0.124456 0.624627
0.875978 0.123950 0.624484
1.000000 0.124315 0.622837
0.147515 0.280101 0.483699
0.203914 0.271054 0.508468
0.291933 0.261204 0.539695
0.370769 0.253432 0.616827
0.489676 0.247726 0.628980
0.615032 0.252821 0.626159
0.733190 0.259401 0.618007
0.880698 0.247602 0.626290
1.000000 0.249267 0.639437
0.185347 0.358120 0.607255
0.217646 0.359204 0.617274
0.277414 0.357430 0.634281
0.318476 0.369834 0.653333
0.456166 0.370879 0.650624
0.615849 0.376419 0.614939
0.742313 0.374611 0.635435
0.860160 0.374890 0.621563
0.951691 0.397435 0.663640
0.134291 0.484191 0.655262
0.195707 0.485919 0.653666
0.227713 0.491698 0.676947
0.355410 0.489906 0.635229
0.471010 0.480061 0.654183
0.608703 0.468921 0.626440
0.738188 0.468056 0.601492
0.825397 0.473786 0.593645
0.991079 0.472303 0.595779
0.005413 0.616220 0.622362
0.116335 0.614907 0.636986
0.272790 0.589359 0.624542
0.368391 0.583774 0.626050
0.435162 0.589638 0.623062
0.578482 0.583712 0.598878
0.711682 0.573701 0.595519
0.834190 0.552477 0.589856
1.000000 0.545026 0.594859
0.188462 0.700791 0.642859
0.123142 0.742353 0.627980
0.274083 0.729211 0.622536
0.397860 0.690264 0.620278
0.500374 0.682503 0.628118
0.599401 0.692604 0.609214
0.680556 0.708846 0.606702
0.831630 0.698299 0.568682
0.977561 0.699419 0.530261
0.222704 0.830789 0.668428
0.125742 0.874313 0.627589
0.271543 0.871155 0.633387
0.407294 0.852600 0.668925
0.519041 0.845878 0.626206
0.649514 0.835171 0.634554
0.778570 0.836774 0.615391
0.881311 0.859691 0.624524
1.000000 0.860704 0.618673
0.000000 1.000000 0.617963
0.124634 0.999964 0.625617
0.431613 0.925118 0.787842
0.452514 0.965072 0.740800
0.548065 0.952069 0.835243
0.625579 1.000000 0.624441
0.765030 0.998901 0.640228
0.864637 0.987126 0.679271
0.988042 0.978759 0.725991
0.000000 0.000000 0.770129
0.123370 0.000000 0.752794
0.249905 0.000000 0.750939
0.374993 0.000000 0.749896
0.499983 0.000023 0.749924
0.625037 0.000000 0.750015
0.750038 0.000000 0.750035
0.874923 0.000125 0.750064
0.999884 0.000257 0.750064
0.095350 0.166297 0.647029
0.125438 0.127049 0.746314
0.248769 0.124865 0.750286
0.374853 0.124785 0.750989
0.500060 0.124917 0.750059
0.624892 0.124997 0.749953
0.749811 0.125119 0.749961
0.874866 0.125165 0.749989
1.000000 0.125048 0.750212
0.223083 0.308374 0.592639
0.215855 0.286897 0.643175
0.276622 0.275690 0.683415
0.376231 0.251840 0.743839
0.501425 0.249989 0.750329
0.625841 0.250079 0.749847
0.750838 0.249641 0.750164
0.875332 0.249817 0.749862
1.000000 0.249911 0.748848
0.221434 0.383092 0.658929
0.270599 0.377142 0.657262
0.317560 0.379520 0.678290
0.372468 0.378353 0.722865
0.485104 0.377500 0.757137
0.624937 0.376004 0.752471
0.751162 0.376397 0.750107
0.875601 0.375577 0.750775
1.000000 0.373508 0.747399
0.138464 0.490084 0.788913
0.155169 0.488769 0.800034
0.249901 0.487943 0.786368
0.391677 0.480502 0.779718
0.432172 0.481147 0.783976
0.585260 0.482310 0.756464
0.751751 0.488349 0.738025
0.860199 0.493670 0.746643
0.987877 0.493061 0.741816
0.029364 0.611710 0.770762
0.174288 0.583183 0.761503
0.285517 0.584103 0.751686
0.330747 0.582578 0.774057
0.437507 0.582006 0.756838
0.570920 0.573758 0.743698
0.749974 0.547917 0.704427
0.840868 0.560978 0.738355
0.997019 0.599231 0.742362
0.000000 0.760253 0.742076
0.145924 0.677465 0.819894
0.337367 0.673949 0.718859
0.395251 0.676728 0.740654
0.478067 0.681011 0.731631
0.572910 0.694177 0.696729
0.694120 0.694278 0.686094
0.850001 0.677824 0.720711
1.000000 0.674034 0.698043
0.002338 0.874954 0.750263
0.126192 0.873186 0.751572
0.243477 0.871031 0.754987
0.361328 0.865618 0.751361
0.501264 0.836301 0.761454
0.624280 0.828302 0.756142
0.741690 0.826209 0.737768
0.876211 0.866077 0.707669
0.999933 0.870914 0.695275
0.000000 1.000000 0.752583
0.117480 1.000000 0.746477
0.256079 0.998533 0.752950
0.495337 0.956015 0.809049
0.522027 0.986043 0.818345
0.627398 1.000000 0.761908
0.766058 0.997192 0.747888
0.857976 0.990959 0.799884
0.995583 1.000000 0.741201
0.000000 0.000000 0.878503
0.125279 0.000008 0.874539
0.250782 0.000342 0.873789
0.375084 0.000107 0.874629
0.499996 0.000016 0.874990
0.624982 0.000005 0.875008
0.749988 0.000015 0.874992
0.875007 0.000001 0.875000
1.000000 0.000000 0.875003
0.006959 0.130715 0.869758
0.120422 0.123337 0.880740
0.246458 0.123148 0.881218
0.374541 0.124357 0.877062
0.499978 0.124959 0.874939
0.624997 0.124979 0.874955
0.750017 0.124962 0.875024
0.874989 0.124996 0.875010
0.999969 0.125021 0.875005
0.212449 0.326109 0.698353
0.166754 0.269489 0.816540
0.265436 0.259424 0.842526
0.376687 0.253133 0.866028
0.500407 0.249779 0.876535
0.625263 0.249886 0.875170
0.750066 0.249920 0.874877
0.874897 0.249984 0.874955
1.000000 0.249985 0.874847
0.239331 0.414493 0.773139
0.258333 0.416571 0.767021
0.313842 0.409478 0.762236
0.397862 0.408030 0.773682
0.499441 0.377128 0.870929
0.627088 0.376313 0.876118
0.750598 0.376094 0.875944
0.875413 0.375250 0.875136
1.000000 0.375070 0.875011
0.220463 0.493694 0.836496
0.189023 0.502835 0.865980
0.264207 0.497855 0.846166
0.373926 0.491608 0.830732
0.468300 0.492870 0.830760
0.601243 0.487668 0.879336
0.748157 0.495800 0.876447
0.876570 0.503892 0.876895
1.000000 0.501711 0.876620
0.188878 0.575594 0.880221
0.227746 0.572310 0.877699
0.251268 0.576860 0.897438
0.331444 0.573435 0.895341
0.430894 0.567283 0.887774
0.536276 0.576345 0.841782
0.747338 0.569102 0.823061
0.859480 0.589881 0.844989
0.996470 0.622067 0.872031
0.020306 0.740219 0.882992
0.159916 0.707351 0.882763
0.230026 0.695386 0.880762
0.311035 0.689642 0.858011
0.426663 0.687182 0.823138
0.539421 0.695607 0.815628
0.732063 0.682233 0.808359
0.891202 0.652563 0.829432
1.000000 0.711865 0.851918
0.000000 0.881721 0.875071
0.129031 0.870606 0.876197
0.243495 0.857398 0.888898
0.366102 0.837069 0.913199
0.419846 0.840742 0.925684
0.547754 0.855660 0.880937
0.722709 0.858445 0.851751
0.874576 0.868312 0.863879
0.980801 0.860881 0.889030
0.260829 0.956982 0.847149
0.084717 1.000000 0.880572
0.234707 1.000000 0.876694
0.437446 0.985141 0.876753
0.548073 0.995047 0.864932
0.621184 1.000000 0.880212
0.712360 1.000000 0.896115
0.867339 1.000000 0.825938
1.000000 0.993024 0.792289
0.000416 0.000234 0.999928
0.125293 0.000379 0.999382
0.250065 0.000258 0.999575
0.375068 0.000082 0.999821
0.500012 0.000024 0.999961
0.625001 0.000003 1.000000
0.750013 0.000000 1.000000
0.875009 0.000000 1.000000
0.999999 0.000000 0.999999
0.000000 0.120045 1.000000
0.122321 0.122191 1.000000
0.250576 0.123923 1.000000
0.374722 0.124764 1.000000
0.499933 0.124919 1.000000
0.625007 0.125025 0.999938
0.749996 0.125011 0.999994
0.875006 0.124996 0.999999
1.000000 0.124985 0.999998
0.188127 0.335422 0.822592
0.144856 0.271966 0.961119
0.236723 0.251414 1.000000
0.375553 0.248083 1.000000
0.500278 0.250015 1.000000
0.624847 0.249931 1.000000
0.749911 0.249968 0.999935
0.875008 0.249987 0.999989
0.999988 0.250005 1.000000
0.242009 0.449947 0.811953
0.233037 0.450993 0.841233
0.284032 0.426550 0.876680
0.386922 0.406890 0.915228
0.501817 0.377777 0.990920
0.624852 0.374975 1.000000
0.750242 0.374867 0.999839
0.874973 0.374870 0.999930
0.999868 0.374977 1.000000
0.233526 0.508299 0.871616
0.232075 0.512968 0.901691
0.316870 0.511891 0.857276
0.375255 0.504751 0.867152
0.482418 0.493674 0.895909
0.630035 0.500797 0.995872
0.752466 0.504029 1.000000
0.874511 0.500665 1.000000
1.000000 0.499343 0.999267
0.275188 0.590725 0.911750
0.286485 0.589498 0.920876
0.271063 0.607426 0.954509
0.321926 0.591475 0.924588
0.430998 0.579637 0.931896
0.584945 0.588291 0.965555
0.721947 0.609273 0.991907
0.875734 0.628899 0.997612
1.000000 0.629349 1.000000
0.316951 0.664478 0.954230
0.325720 0.656867 0.970080
0.317984 0.663146 0.972701
0.345726 0.678798 0.988780
0.342583 0.681623 0.997391
0.448902 0.698684 1.000000
0.707050 0.680218 0.913835
0.917534 0.707732 0.971597
0.996889 0.756912 0.997145
0.010816 0.869820 1.000000
0.159516 0.861760 0.999056
0.343318 0.827650 0.982104
0.385429 0.827378 0.982059
0.416588 0.839558 0.998883
0.469826 0.873160 1.000000
0.715753 0.862349 1.000000
0.884100 0.856055 0.967128
0.940353 0.764617 0.902697
0.523595 0.932685 0.918691
0.518788 0.920786 0.917224
0.481990 0.949200 0.933429
0.534529 0.970175 0.950891
0.561444 0.936503 0.941119
0.605138 0.983763 0.960761
0.685431 0.999269 0.997774
0.880435 0.998579 0.978468
0.981909 0.931531 0.853896
