artifacts/kodachrome.cube
TITLE "kodachrome"
LUT_3D_SIZE 33
DOMAIN_MIN 0.0 0.0 0.0
DOMAIN_MAX 1.0 1.0 1.0
0.006541 0.007215 0.000920
0.088198 0.017785 0.004439
0.092413 0.017723 0.008659
0.116593 0.038034 0.017190
0.130835 0.049775 0.029038
0.155517 0.065725 0.038013
0.187667 0.064627 0.045966
0.214597 0.080428 0.063276
0.242443 0.079117 0.060466
0.280878 0.075260 0.020459
0.309702 0.042194 0.023491
0.333392 0.044285 0.014975
0.352233 0.063468 0.020638
0.363618 0.091894 0.053823
0.387592 0.105183 0.064017
0.409211 0.115081 0.075413
0.426694 0.130648 0.084933
0.453653 0.136624 0.101844
0.489492 0.122025 0.062174
0.511930 0.122519 0.085378
0.558291 0.090769 0.012761
0.583443 0.108780 0.095909
0.607510 0.130727 0.076173
0.608330 0.187438 0.141140
0.626714 0.216239 0.169806
0.657669 0.226740 0.150121
0.676834 0.246183 0.170676
0.737967 0.191767 0.138286
0.815004 0.110554 0.087279
0.888708 0.035990 0.036342
0.946897 0.000000 0.001764
0.992761 0.000000 0.000000
1.000000 0.000000 0.000000
0.014840 0.074389 0.018123
0.078107 0.059615 0.012811
0.102253 0.062697 0.012908
0.123717 0.065905 0.019005
0.141129 0.070766 0.019406
0.163719 0.078313 0.021749
0.193314 0.086442 0.029297
0.216005 0.089069 0.032262
0.245149 0.092090 0.040004
0.268868 0.086126 0.044152
0.306411 0.079702 0.025255
0.328913 0.076558 0.017251
0.347706 0.074999 0.032001
0.369194 0.092904 0.046812
0.388832 0.118563 0.061995
0.409227 0.123043 0.072357
0.426292 0.129428 0.080617
0.454849 0.137665 0.091663
0.487942 0.144622 0.089840
0.497427 0.156255 0.109529
0.541436 0.147327 0.091048
0.585782 0.146485 0.044430
0.583135 0.175703 0.078640
0.579297 0.232763 0.204702
0.629612 0.217771 0.154246
0.650002 0.243541 0.175560
0.667957 0.257401 0.185469
0.697459 0.272057 0.203294
0.772707 0.203964 0.152082
0.842457 0.139151 0.103776
0.910101 0.075500 0.053611
0.971147 0.020347 0.008695
1.000000 0.000000 0.000000
0.043461 0.083624 0.033118
0.074777 0.090688 0.034438
0.106474 0.090375 0.026285
0.123852 0.090557 0.025130
0.145576 0.093836 0.027729
0.170303 0.095622 0.022683
0.195553 0.094402 0.015551
0.217416 0.097192 0.021736
0.242682 0.098706 0.023547
0.266562 0.098222 0.034942
0.296255 0.101893 0.045507
0.323164 0.090443 0.037233
0.347335 0.081792 0.034676
0.371440 0.099495 0.045095
0.391698 0.123183 0.065111
0.410862 0.131708 0.076410
0.432254 0.135201 0.082248
0.463504 0.138104 0.083145
0.492428 0.146762 0.090074
0.513855 0.157654 0.100242
0.540254 0.165609 0.104424
0.567901 0.166566 0.088011
0.596863 0.159015 0.080990
0.598370 0.212025 0.170539
0.627844 0.232623 0.176334
0.644886 0.253185 0.189073
0.671594 0.258973 0.192776
0.714773 0.267108 0.182563
0.747991 0.266312 0.189074
0.791373 0.245605 0.177875
0.869033 0.166504 0.110108
0.945054 0.090420 0.041805
1.000000 0.021501 0.000000
0.057984 0.114598 0.043983
0.080085 0.115755 0.043405
0.101200 0.118821 0.039096
0.131313 0.116125 0.026207
0.145973 0.118503 0.028711
0.165715 0.118534 0.031759
0.188991 0.115678 0.030186
0.214784 0.113082 0.024624
0.241544 0.107778 0.015726
0.266127 0.109730 0.032810
0.289535 0.114638 0.049412
0.317702 0.103533 0.036136
0.342855 0.100858 0.035845
0.368979 0.115885 0.052252
0.391983 0.134503 0.071493
0.411234 0.144392 0.084000
0.433482 0.147645 0.088778
0.471190 0.143663 0.078081
0.502844 0.148377 0.079463
0.528310 0.158027 0.087536
0.546621 0.172031 0.106854
0.561226 0.186820 0.133238
0.584910 0.194141 0.149290
0.594219 0.227961 0.205039
0.626925 0.246339 0.201514
0.654759 0.256078 0.187321
0.664860 0.278581 0.213283
0.709154 0.275028 0.191443
0.744968 0.282910 0.191398
0.766692 0.300356 0.213644
0.826208 0.248428 0.163938
0.911125 0.165816 0.082036
0.999027 0.082722 0.000462
0.068705 0.135774 0.052603
0.094088 0.134764 0.047520
0.110120 0.135706 0.039136
0.135209 0.135249 0.034240
0.149772 0.134987 0.032247
0.161810 0.136597 0.038733
0.179014 0.138226 0.040955
0.207957 0.134971 0.037717
0.232660 0.132253 0.034709
0.260678 0.124629 0.021445
0.290273 0.123854 0.033699
0.320464 0.120266 0.028846
0.339255 0.116994 0.029455
0.368429 0.127077 0.046184
0.395294 0.139793 0.060801
0.418804 0.150101 0.076731
0.446326 0.153208 0.078724
0.480224 0.152957 0.071757
0.510438 0.157219 0.074113
0.533987 0.166872 0.087333
0.551934 0.181329 0.109638
0.567500 0.199068 0.139525
0.585014 0.218484 0.170838
0.597853 0.246298 0.211810
0.628842 0.264540 0.206289
0.656119 0.270656 0.202677
0.687996 0.269613 0.192643
0.731171 0.260473 0.165759
0.762535 0.269041 0.168448
0.773398 0.300174 0.208045
0.784077 0.316637 0.208236
0.875585 0.239766 0.123875
0.973585 0.155234 0.034234
0.078903 0.154318 0.052584
0.102952 0.154149 0.049943
0.124138 0.154122 0.052482
0.136602 0.154808 0.049617
0.148391 0.154703 0.046260
0.167294 0.155388 0.044862
0.178207 0.156980 0.047826
0.195779 0.159695 0.046618
0.222759 0.155722 0.046050
0.253444 0.149285 0.036136
0.284429 0.143450 0.032064
0.315777 0.133468 0.010374
0.342575 0.133707 0.012815
0.369166 0.146103 0.035921
0.395762 0.151189 0.060882
0.421990 0.159830 0.074667
0.452125 0.164868 0.074283
0.485703 0.168465 0.069999
0.510751 0.175417 0.081576
0.526255 0.188093 0.108896
0.547084 0.201552 0.127007
0.565724 0.218803 0.149877
0.594082 0.232358 0.158308
0.622917 0.246578 0.164557
0.645221 0.266303 0.173579
0.658083 0.287847 0.192072
0.699012 0.277356 0.170688
0.745058 0.261946 0.144400
0.770822 0.270332 0.152239
0.777669 0.301920 0.186091
0.784103 0.336865 0.209851
0.855559 0.296110 0.156220
0.944937 0.232781 0.077828
0.075501 0.178892 0.059305
0.102295 0.177638 0.061271
0.121077 0.175382 0.065278
0.139486 0.174930 0.064559
0.152519 0.175516 0.063397
0.168940 0.175028 0.056377
0.183829 0.176247 0.055191
0.198587 0.176307 0.056876
0.213022 0.179686 0.052031
0.241836 0.176367 0.046699
0.275100 0.170004 0.044412
0.308407 0.164984 0.036969
0.345016 0.158987 0.014212
0.366497 0.164098 0.042552
0.394400 0.173367 0.089924
0.425557 0.180471 0.076896
0.457124 0.185753 0.070805
0.488031 0.189922 0.072716
0.508963 0.197994 0.092662
0.517176 0.213638 0.132408
0.540382 0.226231 0.145798
0.554910 0.244781 0.171629
0.601612 0.245668 0.142703
0.646064 0.247488 0.118281
0.674755 0.259121 0.117714
0.692086 0.276574 0.131658
0.718708 0.280555 0.131480
0.745312 0.282631 0.133522
0.766595 0.290816 0.151001
0.773200 0.317402 0.191827
0.792794 0.341847 0.213230
0.846601 0.339271 0.185259
0.923882 0.298351 0.119608
0.097777 0.195012 0.071781
0.102846 0.195626 0.064428
0.124148 0.194781 0.070435
0.144842 0.194109 0.069534
0.157707 0.194935 0.072988
0.169806 0.195028 0.068383
0.187451 0.194412 0.059952
0.201016 0.196249 0.054276
0.220049 0.197938 0.046923
0.236772 0.203841 0.043307
0.265491 0.204910 0.048988
0.298596 0.200975 0.059915
0.336028 0.188944 0.004524
0.376704 0.183860 0.000000
0.395919 0.191021 0.035461
0.427321 0.203912 0.061350
0.457709 0.211086 0.074478
0.487521 0.214067 0.080293
0.512790 0.218534 0.094770
0.529212 0.230347 0.121976
0.546755 0.246047 0.143128
0.573010 0.256912 0.143591
0.619024 0.255371 0.108885
0.664532 0.253364 0.078762
0.699122 0.257715 0.069896
0.723043 0.268854 0.077984
0.736121 0.287455 0.098282
0.735752 0.316383 0.134663
0.766519 0.314279 0.146266
0.781355 0.329455 0.184116
0.811032 0.341349 0.200485
0.868893 0.336773 0.174770
0.928195 0.321684 0.141158
0.122637 0.210659 0.077841
0.120600 0.215330 0.068773
0.142362 0.211593 0.085967
0.158174 0.212348 0.089248
0.170776 0.213539 0.087719
0.186455 0.215124 0.082514
0.202615 0.216190 0.073017
0.216268 0.218563 0.068468
0.234154 0.219873 0.057391
0.250290 0.221729 0.043870
0.264222 0.226777 0.048739
0.291218 0.229501 0.047519
0.328777 0.227435 0.042173
0.371707 0.218836 0.000000
0.405969 0.219693 0.000000
0.426829 0.223900 0.053704
0.457512 0.233663 0.075907
0.488068 0.237450 0.080928
0.514507 0.240688 0.097461
0.536605 0.248977 0.119200
0.554221 0.267170 0.141720
0.587970 0.271966 0.124028
0.632687 0.269008 0.084559
0.675537 0.266212 0.050153
0.709060 0.269474 0.043661
0.733974 0.278933 0.058200
0.751539 0.294386 0.080135
0.766567 0.311326 0.101924
0.796241 0.314118 0.108993
0.828024 0.316190 0.118374
0.866351 0.315718 0.125577
0.915348 0.307479 0.130092
0.968291 0.293053 0.142612
0.159725 0.231683 0.115970
0.156950 0.236535 0.103570
0.170972 0.234531 0.109185
0.179676 0.238579 0.114346
0.193637 0.237341 0.104534
0.203571 0.239184 0.099602
0.221230 0.238960 0.088696
0.230290 0.241207 0.082535
0.244126 0.243689 0.078160
0.262061 0.245825 0.067766
0.278220 0.249557 0.061035
0.292064 0.255493 0.053612
0.324450 0.257513 0.065326
0.365209 0.257129 0.048271
0.397293 0.252556 0.033660
0.441512 0.252074 0.018020
0.469205 0.254630 0.039103
0.496356 0.263665 0.059735
0.511027 0.273240 0.094170
0.542803 0.278423 0.113691
0.577030 0.283681 0.115343
0.598638 0.290190 0.120315
0.635006 0.291014 0.095912
0.679933 0.285605 0.037537
0.711014 0.290246 0.033796
0.731892 0.300636 0.065257
0.752950 0.310347 0.091189
0.786039 0.314890 0.088918
0.826406 0.314564 0.073498
0.868017 0.311181 0.062221
0.909173 0.305705 0.063728
0.951802 0.296567 0.080758
0.997231 0.283278 0.109934
0.156825 0.268343 0.115236
0.178606 0.266096 0.125054
0.202193 0.258956 0.129382
0.202849 0.263078 0.127491
0.211773 0.260395 0.123779
0.223249 0.264011 0.115455
0.234079 0.264389 0.107080
0.251744 0.263941 0.094852
0.266453 0.265827 0.090365
0.282761 0.269853 0.085565
0.290561 0.273999 0.082318
0.310165 0.277791 0.080754
0.330209 0.286971 0.080011
0.360185 0.288208 0.080020
0.395563 0.289325 0.070620
0.434027 0.291275 0.056240
0.477465 0.283203 0.006913
0.503225 0.286280 0.032857
0.538948 0.288155 0.024052
0.560689 0.298987 0.080446
0.587445 0.305809 0.108649
0.600529 0.316943 0.149582
0.628678 0.322200 0.151526
0.679671 0.314806 0.072792
0.713448 0.316930 0.050323
0.729639 0.326473 0.081660
0.740739 0.336545 0.125953
0.790485 0.332941 0.094177
0.845203 0.326756 0.051818
0.892312 0.321162 0.028033
0.933077 0.315611 0.025276
0.970972 0.309220 0.039298
1.000000 0.301677 0.061247
0.116926 0.313197 0.082503
0.152346 0.306278 0.099768
0.192774 0.295737 0.117382
0.225479 0.286281 0.130518
0.229592 0.290546 0.128570
0.241509 0.292166 0.126485
0.249307 0.294184 0.123976
0.264098 0.296569 0.118991
0.279990 0.297040 0.111959
0.291989 0.299816 0.110675
0.311853 0.303181 0.106124
0.327437 0.308715 0.102278
0.344377 0.311721 0.098371
0.362499 0.317562 0.097038
0.399203 0.320419 0.096559
0.428837 0.325434 0.109899
0.463275 0.318172 0.075994
0.507300 0.314863 0.049954
0.539510 0.315122 0.055419
0.564406 0.318285 0.095625
0.592857 0.327489 0.107174
0.618956 0.335322 0.138509
0.648919 0.341269 0.140614
0.687625 0.342181 0.094774
0.718610 0.344944 0.070552
0.737996 0.351523 0.083042
0.755164 0.358372 0.108541
0.803810 0.354379 0.076681
0.857667 0.348012 0.035552
0.903834 0.343109 0.011295
0.942927 0.339327 0.005240
0.978351 0.335897 0.011459
1.000000 0.332486 0.022585
0.076150 0.356094 0.051655
0.121142 0.347907 0.072716
0.174370 0.336273 0.100208
0.234326 0.321613 0.134314
0.263218 0.318404 0.148395
0.264928 0.321091 0.141823
0.272129 0.322792 0.137132
0.280898 0.325900 0.136144
0.296223 0.327679 0.130112
0.309164 0.329282 0.124319
0.328913 0.332742 0.126030
0.338596 0.333027 0.119700
0.353567 0.336486 0.113399
0.374961 0.341885 0.113817
0.404365 0.347560 0.103082
0.427208 0.349763 0.113947
0.460580 0.353823 0.129846
0.497164 0.352339 0.100295
0.532746 0.344689 0.063640
0.577970 0.340070 0.071066
0.607366 0.343955 0.083476
0.635690 0.354361 0.126637
0.668688 0.359747 0.114976
0.698515 0.365569 0.094632
0.726104 0.370632 0.078466
0.752749 0.374938 0.071384
0.783151 0.377466 0.065937
0.823666 0.376253 0.046827
0.867589 0.373501 0.022808
0.908288 0.371283 0.005677
0.945066 0.369707 0.000000
0.979734 0.368399 0.000000
1.000000 0.367203 0.000000
0.066013 0.389995 0.050472
0.103880 0.386060 0.060916
0.150702 0.378593 0.081125
0.215216 0.364476 0.119859
0.281697 0.348878 0.161782
0.287228 0.348070 0.163664
0.294198 0.353781 0.168439
0.302239 0.353906 0.159356
0.309323 0.356074 0.155323
0.328763 0.355551 0.148284
0.342588 0.357553 0.145190
0.355341 0.359905 0.147365
0.367431 0.365226 0.143335
0.391923 0.368353 0.136141
0.412807 0.374995 0.126137
0.433673 0.381208 0.129125
0.461730 0.384163 0.124737
0.490001 0.381813 0.153827
0.520766 0.385034 0.132122
0.570823 0.376402 0.093774
0.613948 0.372417 0.090738
0.651924 0.374413 0.096402
0.682320 0.376234 0.098482
0.704802 0.386423 0.097556
0.731450 0.393713 0.084202
0.762429 0.397962 0.067621
0.797651 0.399851 0.051809
0.835341 0.400406 0.037150
0.873256 0.400527 0.021970
0.909360 0.400902 0.009246
0.944155 0.401406 0.000000
0.978638 0.401904 0.000000
1.000000 0.402401 0.000000
0.105193 0.411919 0.095554
0.108653 0.418744 0.071054
0.128930 0.419608 0.063066
0.176535 0.411354 0.083386
0.246089 0.394585 0.129771
0.309191 0.376133 0.182504
0.315431 0.377218 0.191315
0.323333 0.379963 0.187868
0.333010 0.381224 0.184508
0.341770 0.384782 0.182326
0.357794 0.384879 0.171488
0.372753 0.387676 0.169066
0.385402 0.392177 0.168424
0.404104 0.395162 0.166894
0.424707 0.401260 0.164446
0.442616 0.403602 0.159889
0.463698 0.408280 0.132019
0.494759 0.413316 0.137814
0.520937 0.414186 0.153083
0.556620 0.414390 0.142657
0.614412 0.408053 0.128484
0.658573 0.402476 0.116046
0.680154 0.401310 0.115170
0.703873 0.406658 0.116096
0.732128 0.413247 0.097826
0.762376 0.419250 0.084757
0.797614 0.423372 0.071353
0.835786 0.425688 0.054741
0.873192 0.427152 0.037544
0.908218 0.428828 0.022777
0.942281 0.431244 0.009375
0.976435 0.434068 0.000000
1.000000 0.436892 0.000000
0.186156 0.426724 0.185647
0.130135 0.447995 0.099017
0.112991 0.457558 0.049270
0.139408 0.455491 0.046473
0.205209 0.442445 0.089740
0.293206 0.422066 0.166281
0.333403 0.409105 0.227101
0.343592 0.412145 0.227224
0.350590 0.413956 0.225398
0.361017 0.417082 0.222234
0.368566 0.418907 0.217255
0.386367 0.423173 0.209601
0.404854 0.421920 0.196955
0.420402 0.426409 0.198983
0.432838 0.429398 0.191340
0.449578 0.434369 0.190257
0.479612 0.437551 0.177206
0.500126 0.442251 0.162469
0.525253 0.446035 0.150349
0.552912 0.448770 0.177533
0.601268 0.445008 0.155070
0.643119 0.435684 0.166210
0.681294 0.429016 0.138795
0.708926 0.423352 0.117745
0.729426 0.429336 0.118249
0.752857 0.436741 0.128298
0.787242 0.445178 0.119018
0.829424 0.449359 0.083591
0.869608 0.450779 0.058510
0.905658 0.452985 0.043246
0.939590 0.457814 0.030114
0.972908 0.463890 0.017798
1.000000 0.469850 0.007158
0.249384 0.455233 0.274880
0.150049 0.478170 0.126887
0.102473 0.492561 0.038967
0.111730 0.495300 0.017192
0.166442 0.486976 0.053790
0.250694 0.469732 0.140072
0.334291 0.450281 0.245473
0.355009 0.446261 0.253173
0.369629 0.447730 0.259080
0.376604 0.449370 0.255977
0.385978 0.451540 0.252736
0.396553 0.452947 0.246603
0.407078 0.455653 0.241724
0.426139 0.455729 0.225791
0.446379 0.458181 0.217098
0.465150 0.459561 0.209328
0.485698 0.462797 0.198903
0.510663 0.463981 0.181372
0.533520 0.468027 0.174328
0.550107 0.469772 0.177018
0.589700 0.467087 0.195633
0.632380 0.464506 0.168832
0.673710 0.457293 0.151465
0.698871 0.453657 0.167302
0.724757 0.447748 0.145337
0.743204 0.450710 0.180499
0.776751 0.465172 0.161635
0.824361 0.470091 0.087955
0.866151 0.470786 0.062759
0.902352 0.473623 0.063571
0.935233 0.481174 0.065227
0.966783 0.490652 0.059218
0.997689 0.500086 0.049136
0.270579 0.481062 0.301311
0.146835 0.510688 0.127222
0.091198 0.527045 0.028406
0.094641 0.531696 0.000000
0.138346 0.527234 0.024203
0.205768 0.515697 0.093145
0.278621 0.500057 0.187676
0.331949 0.485993 0.265989
0.361925 0.479105 0.274139
0.388710 0.476424 0.278928
0.399048 0.476153 0.278116
0.408807 0.478524 0.278291
0.421215 0.479923 0.270590
0.431562 0.484515 0.270292
0.447667 0.483719 0.251741
0.472496 0.480090 0.238320
0.489833 0.482731 0.225906
0.515919 0.485218 0.223638
0.538482 0.483351 0.212443
0.559490 0.488991 0.194710
0.584057 0.492524 0.219228
0.626720 0.488111 0.199173
0.664348 0.483383 0.172880
0.697507 0.477284 0.170709
0.729197 0.476031 0.161815
0.765642 0.475383 0.155554
0.793709 0.483327 0.073339
0.826460 0.487198 0.049605
0.864051 0.488753 0.035225
0.899181 0.493746 0.077830
0.928857 0.502107 0.118281
0.956252 0.512994 0.126892
0.985886 0.526476 0.105571
0.163248 0.532075 0.188836
0.105147 0.549853 0.085374
0.077559 0.561436 0.016050
0.086373 0.565634 0.000000
0.122110 0.563848 0.002962
0.173192 0.557327 0.046360
0.229853 0.546490 0.115721
0.283411 0.531782 0.205806
0.326240 0.516963 0.294612
0.364344 0.512926 0.301324
0.393902 0.508185 0.299957
0.421113 0.505119 0.302826
0.432273 0.506439 0.303022
0.441394 0.506688 0.295535
0.457445 0.506915 0.286800
0.470885 0.510418 0.279778
0.491336 0.511331 0.270590
0.515061 0.509162 0.253425
0.537036 0.509006 0.248524
0.567221 0.508953 0.233407
0.584902 0.511424 0.218147
0.616885 0.512129 0.243725
0.656121 0.510237 0.225415
0.687012 0.508038 0.228067
0.736831 0.500934 0.179580
0.778243 0.495555 0.118678
0.801770 0.502594 0.124529
0.829890 0.503092 0.060740
0.864796 0.506262 0.000000
0.899545 0.515179 0.091804
0.922854 0.521311 0.176495
0.940949 0.529866 0.208366
0.972803 0.549084 0.153388
0.051661 0.584580 0.071384
0.051295 0.591470 0.030262
0.059623 0.596391 0.000000
0.081571 0.598359 0.000000
0.115005 0.597671 0.000000
0.155545 0.594456 0.013436
0.200303 0.587761 0.056476
0.248476 0.575831 0.125805
0.299535 0.557892 0.218796
0.350455 0.537894 0.307752
0.372929 0.538405 0.315728
0.398338 0.535931 0.322004
0.438459 0.531300 0.333937
0.448783 0.533628 0.332326
0.463154 0.536363 0.323783
0.480467 0.537088 0.317365
0.498627 0.539733 0.304683
0.513380 0.541983 0.291008
0.525814 0.547286 0.296996
0.555781 0.543592 0.271687
0.591729 0.542094 0.255476
0.615185 0.544731 0.244787
0.656371 0.541755 0.257554
0.690693 0.540031 0.264616
0.750248 0.530187 0.200740
0.810025 0.521402 0.086217
0.816572 0.528227 0.114857
0.840706 0.523966 0.102627
0.867984 0.530667 0.057246
0.903991 0.539596 0.082499
0.922606 0.543874 0.158756
0.933389 0.549362 0.212711
0.964723 0.569117 0.157309
0.000000 0.629931 0.000000
0.010423 0.630674 0.000000
0.043404 0.630807 0.000000
0.077869 0.630404 0.000000
0.113121 0.629655 0.000000
0.149092 0.628127 0.000000
0.187042 0.624402 0.017496
0.229262 0.616228 0.059380
0.277194 0.601410 0.127612
0.328286 0.580038 0.220292
0.373718 0.559185 0.314696
0.395500 0.562654 0.342692
0.421354 0.563220 0.347498
0.459921 0.557098 0.363848
0.474944 0.560233 0.373769
0.483588 0.564117 0.365438
0.504192 0.564226 0.353578
0.521029 0.564983 0.336236
0.535040 0.571648 0.322053
0.550247 0.571153 0.329278
0.585317 0.573409 0.289067
0.625392 0.570591 0.264415
0.657524 0.573423 0.256431
0.691221 0.577122 0.259440
0.766844 0.561464 0.173390
0.834007 0.548813 0.026668
0.819574 0.569304 0.140594
0.845782 0.568945 0.124776
0.887408 0.560799 0.003015
0.915134 0.564794 0.008750
0.930754 0.569974 0.057265
0.945647 0.576168 0.100793
0.966142 0.585866 0.106652
0.000000 0.666652 0.000000
0.000000 0.665077 0.000000
0.035624 0.663274 0.000000
0.076218 0.661662 0.000000
0.113630 0.660590 0.000000
0.148532 0.659721 0.000000
0.183167 0.657866 0.000000
0.220341 0.653156 0.016616
0.262159 0.643565 0.056393
0.309285 0.627985 0.122316
0.361101 0.608043 0.210595
0.409862 0.590757 0.298089
0.422285 0.587823 0.361308
0.448900 0.589785 0.382956
0.482735 0.585056 0.396940
0.493312 0.586555 0.398486
0.499717 0.589881 0.390451
0.530153 0.592545 0.367438
0.545124 0.600861 0.346795
0.576144 0.594576 0.326031
0.601207 0.595903 0.326648
0.638413 0.603374 0.295171
0.673274 0.606234 0.280232
0.703633 0.610752 0.272263
0.752776 0.606237 0.248815
0.822112 0.590066 0.164165
0.837552 0.595933 0.084232
0.853777 0.601340 0.099070
0.894649 0.600409 0.000000
0.920879 0.591677 0.004444
0.935612 0.589771 0.000000
0.969946 0.593746 0.032698
0.976880 0.597675 0.034915
0.000000 0.697471 0.000000
0.000000 0.695693 0.000000
0.036535 0.693832 0.000000
0.077304 0.692157 0.000000
0.115138 0.691019 0.000000
0.149990 0.690377 0.000000
0.183315 0.689570 0.000000
0.217372 0.687403 0.000000
0.254389 0.682437 0.012067
0.295973 0.673431 0.048894
0.341783 0.660008 0.113100
0.385943 0.643731 0.212881
0.416316 0.629614 0.345467
0.429587 0.623972 0.421626
0.456879 0.624317 0.415819
0.494743 0.620478 0.422959
0.527483 0.619281 0.420655
0.535411 0.625083 0.415387
0.556317 0.623868 0.404975
0.593816 0.626941 0.378490
0.623365 0.633972 0.338454
0.662205 0.630772 0.312814
0.697762 0.630332 0.293614
0.716176 0.637329 0.307802
0.767478 0.637917 0.254832
0.913209 0.601719 0.000000
0.830736 0.622135 0.130530
0.850681 0.623710 0.129398
0.885831 0.621031 0.061073
0.915517 0.623548 0.035919
0.938585 0.608707 0.001478
1.000000 0.609537 0.046498
1.000000 0.612484 0.000000
0.000000 0.726249 0.000000
0.002313 0.724978 0.000000
0.041344 0.723649 0.000000
0.079853 0.722359 0.000000
0.116816 0.721362 0.000000
0.151601 0.720808 0.000000
0.184634 0.720495 0.000000
0.217273 0.719827 0.000000
0.251200 0.717921 0.000000
0.287581 0.713782 0.008215
0.325901 0.706642 0.047628
0.363112 0.696672 0.118496
0.394641 0.686015 0.217417
0.417053 0.678075 0.323665
0.441445 0.671863 0.436439
0.470547 0.667118 0.443947
0.510634 0.658901 0.447464
0.552082 0.652494 0.443078
0.587738 0.654409 0.422455
0.603421 0.658288 0.392987
0.628218 0.664748 0.347572
0.680944 0.660422 0.300237
0.718028 0.662983 0.275917
0.742367 0.673163 0.269329
0.768587 0.671241 0.305095
0.860490 0.636655 0.093360
0.845465 0.650141 0.147562
0.847186 0.655624 0.189444
0.866023 0.653266 0.193532
0.903516 0.651552 0.140993
0.912826 0.640685 0.070727
1.000000 0.632428 0.000000
1.000000 0.633212 0.000000
0.000000 0.755769 0.000000
0.008233 0.754872 0.000000
0.044880 0.753902 0.000000
0.081686 0.752869 0.000000
0.117927 0.751950 0.000000
0.152766 0.751368 0.000000
0.185973 0.751184 0.000000
0.218140 0.751184 0.000000
0.250282 0.750886 0.000000
0.283144 0.749646 0.000000
0.316622 0.746869 0.010407
0.349702 0.742385 0.048197
0.380650 0.736785 0.106887
0.406877 0.731143 0.186220
0.426173 0.725937 0.275565
0.438472 0.720278 0.347916
0.467706 0.707089 0.438595
0.540292 0.700587 0.453634
0.595631 0.686837 0.440039
0.656918 0.674916 0.423137
0.661638 0.680193 0.404765
0.709828 0.683105 0.321564
0.750151 0.694392 0.273802
0.767109 0.699648 0.289872
0.790361 0.692791 0.320516
0.815548 0.681559 0.252561
0.827705 0.686343 0.236707
0.835712 0.692503 0.263452
0.855415 0.686694 0.250115
0.891159 0.682074 0.216539
0.937997 0.674777 0.199667
0.975330 0.671163 0.000969
1.000000 0.660430 0.000000
0.000000 0.787314 0.000000
0.007269 0.786272 0.000000
0.044275 0.785174 0.000000
0.081426 0.784008 0.000000
0.118113 0.782925 0.000000
0.153467 0.782167 0.000000
0.187042 0.781892 0.000000
0.219112 0.782051 0.000000
0.250374 0.782395 0.000000
0.281477 0.782554 0.000000
0.312720 0.782157 0.000000
0.343944 0.780958 0.008751
0.374204 0.778905 0.036515
0.401301 0.776116 0.079488
0.422693 0.772603 0.135427
0.440828 0.767399 0.203227
0.466599 0.759171 0.277043
0.505019 0.750146 0.342101
0.542088 0.738518 0.438368
0.627104 0.726587 0.430738
0.706885 0.713090 0.422219
0.718401 0.714594 0.418830
0.791431 0.723931 0.287749
0.775148 0.721981 0.336824
0.783593 0.717402 0.350317
0.796636 0.716041 0.322338
0.812947 0.717171 0.335096
0.833378 0.726098 0.330774
0.857088 0.722135 0.306341
0.885401 0.720435 0.287767
0.929759 0.732332 0.241909
0.980716 0.715415 0.208381
0.999949 0.718296 0.158291
0.000000 0.821006 0.000000
0.000000 0.819185 0.000000
0.039480 0.817397 0.000000
0.079274 0.815681 0.000000
0.117670 0.814195 0.000000
0.153938 0.813164 0.000000
0.187875 0.812714 0.000000
0.219925 0.812808 0.000000
0.250840 0.813279 0.000000
0.281319 0.813908 0.000000
0.311809 0.814470 0.000000
0.342365 0.814739 0.000000
0.372429 0.814486 0.001316
0.400815 0.813495 0.019202
0.426558 0.811553 0.047997
0.450315 0.808517 0.088325
0.472822 0.805063 0.133651
0.492903 0.802996 0.176687
0.513152 0.805811 0.199485
0.550191 0.808358 0.202755
0.653573 0.759880 0.469554
0.728789 0.744700 0.421457
0.767077 0.741024 0.386163
0.761418 0.739951 0.367208
0.787160 0.746122 0.376299
0.801928 0.754034 0.349202
0.817768 0.760370 0.332526
