artifacts/kodachrome.cube
TITLE "kodachrome"
LUT_3D_SIZE 5
DOMAIN_MIN 0.0 0.0 0.0
DOMAIN_MAX 1.0 1.0 1.0
0.006541 0.007215 0.000920
0.242443 0.079117 0.060466
0.426694 0.130648 0.084933
0.626714 0.216239 0.169806
1.000000 0.000000 0.000000
0.122637 0.210659 0.077841
0.234154 0.219873 0.057391
0.457512 0.233663 0.075907
0.709060 0.269474 0.043661
0.968291 0.293053 0.142612
0.249384 0.455233 0.274880
0.369629 0.447730 0.259080
0.485698 0.462797 0.198903
0.724757 0.447748 0.145337
0.997689 0.500086 0.049136
0.000000 0.755769 0.000000
0.250282 0.750886 0.000000
0.467706 0.707089 0.438595
0.790361 0.692791 0.320516
1.000000 0.660430 0.000000
0.000000 1.000000 0.000000
0.251778 0.999613 0.001573
0.503026 0.999237 0.000000
0.740433 1.000000 0.000000
0.994893 1.000000 0.050204
0.000000 0.058280 0.240594
0.249401 0.009306 0.272168
0.483342 0.025923 0.255137
0.637722 0.190900 0.321536
0.983943 0.098529 0.197518
0.115453 0.216594 0.172087
0.244683 0.212916 0.180282
0.473428 0.213963 0.201915
0.660118 0.315207 0.294404
0.899470 0.361246 0.308129
0.171062 0.472576 0.314126
0.327299 0.458553 0.310654
0.492245 0.466604 0.253790
0.732408 0.460852 0.251766
0.959812 0.474875 0.274702
0.083072 0.732493 0.303228
0.248659 0.749012 0.256298
0.500878 0.693426 0.491158
0.758262 0.689526 0.358489
1.000000 0.680270 0.200358
0.738518 0.885710 0.555702
0.231192 1.000000 0.241080
0.499812 1.000000 0.243826
0.744251 1.000000 0.223651
1.000000 0.994491 0.520654
0.000000 0.003471 0.508588
0.247360 0.000441 0.505594
0.500430 0.000000 0.500202
0.752530 0.000000 0.498489
0.999424 0.000000 0.499801
0.120114 0.248943 0.406236
0.283354 0.222146 0.467441
0.476141 0.242950 0.483772
0.742785 0.243724 0.522564
0.997592 0.274351 0.525481
0.009920 0.497198 0.504960
0.244703 0.491122 0.492568
0.474137 0.489472 0.514665
0.740661 0.465610 0.498429
0.975145 0.489189 0.507750
0.313925 0.674752 0.573043
0.299861 0.718096 0.529199
0.511079 0.690735 0.544629
0.695555 0.703556 0.525662
1.000000 0.701358 0.463859
0.000000 1.000000 0.455654
0.350361 0.967180 0.584250
0.498423 1.000000 0.496287
0.760279 0.988127 0.554061
0.958999 0.961419 0.662218
0.000000 0.000000 0.770129
0.249905 0.000000 0.750939
0.499983 0.000023 0.749924
0.750038 0.000000 0.750035
0.999884 0.000257 0.750064
0.223083 0.308374 0.592639
0.276622 0.275690 0.683415
0.501425 0.249989 0.750329
0.750838 0.249641 0.750164
1.000000 0.249911 0.748848
0.138464 0.490084 0.788913
0.249901 0.487943 0.786368
0.432172 0.481147 0.783976
0.751751 0.488349 0.738025
0.987877 0.493061 0.741816
0.000000 0.760253 0.742076
0.337367 0.673949 0.718859
0.478067 0.681011 0.731631
0.694120 0.694278 0.686094
1.000000 0.674034 0.698043
0.000000 1.000000 0.752583
0.256079 0.998533 0.752950
0.522027 0.986043 0.818345
0.766058 0.997192 0.747888
0.995583 1.000000 0.741201
0.000416 0.000234 0.999928
0.250065 0.000258 0.999575
0.500012 0.000024 0.999961
0.750013 0.000000 1.000000
0.999999 0.000000 0.999999
0.188127 0.335422 0.822592
0.236723 0.251414 1.000000
0.500278 0.250015 1.000000
0.749911 0.249968 0.999935
0.999988 0.250005 1.000000
0.233526 0.508299 0.871616
0.316870 0.511891 0.857276
0.482418 0.493674 0.895909
0.752466 0.504029 1.000000
1.000000 0.499343 0.999267
0.316951 0.664478 0.954230
0.317984 0.663146 0.972701
0.342583 0.681623 0.997391
0.707050 0.680218 0.913835
0.996889 0.756912 0.997145
0.523595 0.932685 0.918691
0.481990 0.949200 0.933429
0.561444 0.936503 0.941119
0.685431 0.999269 0.997774
0.981909 0.931531 0.853896
